; small calibration cube outline, generated for rust_3d_printer_simulator tests
G28
M140 S60
M104 S205
M190 S60
M109 S205
G90
M82
G92 E0
; layer 1 z=0.20
G0 X0.000 Y0.000 Z0.200 F4000
G1 X15.000 Y0.000 E0.4950 F900
G1 X15.000 Y15.000 E0.9900 F900
G1 X0.000 Y15.000 E1.4850 F900
G1 X0.000 Y0.000 E1.9800 F900
; layer 2 z=0.40
G0 X0.000 Y0.000 Z0.400 F4000
G1 X15.000 Y0.000 E2.4750 F900
G1 X15.000 Y15.000 E2.9700 F900
G1 X0.000 Y15.000 E3.4650 F900
G1 X0.000 Y0.000 E3.9600 F900
; layer 3 z=0.60
G0 X0.000 Y0.000 Z0.600 F4000
G1 X15.000 Y0.000 E4.4550 F900
G1 X15.000 Y15.000 E4.9500 F900
G1 X0.000 Y15.000 E5.4450 F900
G1 X0.000 Y0.000 E5.9400 F900
; layer 4 z=0.80
G0 X0.000 Y0.000 Z0.800 F4000
G1 X15.000 Y0.000 E6.4350 F900
G1 X15.000 Y15.000 E6.9300 F900
G1 X0.000 Y15.000 E7.4250 F900
G1 X0.000 Y0.000 E7.9200 F900
; layer 5 z=1.00
G0 X0.000 Y0.000 Z1.000 F4000
G1 X15.000 Y0.000 E8.4150 F900
G1 X15.000 Y15.000 E8.9100 F900
G1 X0.000 Y15.000 E9.4050 F900
G1 X0.000 Y0.000 E9.9000 F900
M104 S0
M140 S0
G28 X Y
