; hollow square tower, generated for rust_3d_printer_simulator tests
G28
M140 S60
M104 S200
M190 S60
M109 S200
G90
M82
G92 E0
; layer 1 z=0.20
G0 X0.000 Y0.000 Z0.200 F4000
G1 X20.000 Y0.000 E0.6600 F1200
G1 X20.000 Y20.000 E1.3200 F1200
G1 X0.000 Y20.000 E1.9800 F1200
G1 X0.000 Y0.000 E2.6400 F1200
; layer 2 z=0.40
G0 X0.000 Y0.000 Z0.400 F4000
G1 X20.000 Y0.000 E3.3000 F1200
G1 X20.000 Y20.000 E3.9600 F1200
G1 X0.000 Y20.000 E4.6200 F1200
G1 X0.000 Y0.000 E5.2800 F1200
; layer 3 z=0.60
G0 X0.000 Y0.000 Z0.600 F4000
G1 X20.000 Y0.000 E5.9400 F1200
G1 X20.000 Y20.000 E6.6000 F1200
G1 X0.000 Y20.000 E7.2600 F1200
G1 X0.000 Y0.000 E7.9200 F1200
; layer 4 z=0.80
G0 X0.000 Y0.000 Z0.800 F4000
G1 X20.000 Y0.000 E8.5800 F1200
G1 X20.000 Y20.000 E9.2400 F1200
G1 X0.000 Y20.000 E9.9000 F1200
G1 X0.000 Y0.000 E10.5600 F1200
; layer 5 z=1.00
G0 X0.000 Y0.000 Z1.000 F4000
G1 X20.000 Y0.000 E11.2200 F1200
G1 X20.000 Y20.000 E11.8800 F1200
G1 X0.000 Y20.000 E12.5400 F1200
G1 X0.000 Y0.000 E13.2000 F1200
; layer 6 z=1.20
G0 X0.000 Y0.000 Z1.200 F4000
G1 X20.000 Y0.000 E13.8600 F1200
G1 X20.000 Y20.000 E14.5200 F1200
G1 X0.000 Y20.000 E15.1800 F1200
G1 X0.000 Y0.000 E15.8400 F1200
; layer 7 z=1.40
G0 X0.000 Y0.000 Z1.400 F4000
G1 X20.000 Y0.000 E16.5000 F1200
G1 X20.000 Y20.000 E17.1600 F1200
G1 X0.000 Y20.000 E17.8200 F1200
G1 X0.000 Y0.000 E18.4800 F1200
; layer 8 z=1.60
G0 X0.000 Y0.000 Z1.600 F4000
G1 X20.000 Y0.000 E19.1400 F1200
G1 X20.000 Y20.000 E19.8000 F1200
G1 X0.000 Y20.000 E20.4600 F1200
G1 X0.000 Y0.000 E21.1200 F1200
M104 S0
M140 S0
G28 X Y
