; twisted six-point star vase, generated for rust_3d_printer_simulator
; 150 layers x 0.2mm = 30.0mm tall, amphora bulge 12-26mm radius, 720 deg total twist
G28
M140 S60
M104 S205
M190 S60
M109 S205
G90
M82
G92 E0
; layer 1 z=0.20 r_out=12.29 twist=0.0
G0 X122.293 Y110.000 Z0.200 F4000
G1 X115.323 Y113.073 E0.2534 F1400
G1 X116.147 Y120.646 E0.5067 F1400
G1 X110.000 Y116.147 E0.7601 F1400
G1 X103.853 Y120.646 E1.0134 F1400
G1 X104.677 Y113.073 E1.2668 F1400
G1 X97.707 Y110.000 E1.5202 F1400
G1 X104.677 Y106.927 E1.7735 F1400
G1 X103.853 Y99.354 E2.0269 F1400
G1 X110.000 Y103.853 E2.2803 F1400
G1 X116.147 Y99.354 E2.5336 F1400
G1 X115.323 Y106.927 E2.7870 F1400
G1 X122.293 Y110.000 E3.0403 F1400
; layer 2 z=0.40 r_out=12.59 twist=4.8
G0 X122.542 Y111.053 Z0.400 F4000
G1 X115.168 Y113.592 E3.2997 F1400
G1 X115.359 Y121.388 E3.5591 F1400
G1 X109.473 Y116.271 E3.8185 F1400
G1 X102.817 Y120.335 E4.0779 F1400
G1 X104.306 Y112.679 E4.3373 F1400
G1 X97.458 Y108.947 E4.5967 F1400
G1 X104.832 Y106.408 E4.8561 F1400
G1 X104.641 Y98.612 E5.1155 F1400
G1 X110.527 Y103.729 E5.3749 F1400
G1 X117.183 Y99.665 E5.6343 F1400
G1 X115.694 Y107.321 E5.8937 F1400
G1 X122.542 Y111.053 E6.1531 F1400
; layer 3 z=0.60 r_out=12.88 twist=9.6
G0 X122.699 Y112.148 Z0.600 F4000
G1 X114.962 Y114.105 E6.4186 F1400
G1 X114.489 Y122.071 E6.6840 F1400
G1 X108.926 Y116.349 E6.9495 F1400
G1 X101.791 Y119.923 E7.2149 F1400
G1 X103.964 Y112.245 E7.4803 F1400
G1 X97.301 Y107.852 E7.7458 F1400
G1 X105.038 Y105.895 E8.0112 F1400
G1 X105.511 Y97.929 E8.2766 F1400
G1 X111.074 Y103.651 E8.5421 F1400
G1 X118.209 Y100.077 E8.8075 F1400
G1 X116.036 Y107.755 E9.0729 F1400
G1 X122.699 Y112.148 E9.3384 F1400
; layer 4 z=0.80 r_out=13.17 twist=14.4
G0 X122.758 Y113.276 Z0.800 F4000
G1 X114.705 Y114.608 E9.6098 F1400
G1 X113.542 Y122.686 E9.8813 F1400
G1 X108.362 Y116.379 E10.1528 F1400
G1 X100.784 Y119.411 E10.4242 F1400
G1 X103.657 Y111.771 E10.6957 F1400
G1 X97.242 Y106.724 E10.9672 F1400
G1 X105.295 Y105.392 E11.2386 F1400
G1 X106.458 Y97.314 E11.5101 F1400
G1 X111.638 Y103.621 E11.7815 F1400
G1 X119.216 Y100.589 E12.0530 F1400
G1 X116.343 Y108.229 E12.3245 F1400
G1 X122.758 Y113.276 E12.5959 F1400
; layer 5 z=1.00 r_out=13.46 twist=19.2
G0 X122.715 Y114.428 Z1.000 F4000
G1 X114.399 Y115.096 E12.8734 F1400
G1 X112.523 Y123.225 E13.1509 F1400
G1 X107.786 Y116.357 E13.4284 F1400
G1 X99.808 Y118.797 E13.7058 F1400
G1 X103.388 Y111.261 E13.9833 F1400
G1 X97.285 Y105.572 E14.2608 F1400
G1 X105.601 Y104.904 E14.5383 F1400
G1 X107.477 Y96.775 E14.8158 F1400
G1 X112.214 Y103.643 E15.0932 F1400
G1 X120.192 Y101.203 E15.3707 F1400
G1 X116.612 Y108.739 E15.6482 F1400
G1 X122.715 Y114.428 E15.9257 F1400
; layer 6 z=1.20 r_out=13.75 twist=24.0
G0 X122.566 Y115.595 Z1.200 F4000
G1 X114.042 Y115.564 E16.2092 F1400
G1 X111.438 Y123.679 E16.4926 F1400
G1 X107.203 Y116.283 E16.7761 F1400
G1 X98.872 Y118.085 E17.0596 F1400
G1 X103.160 Y110.719 E17.3431 F1400
G1 X97.434 Y104.405 E17.6266 F1400
G1 X105.958 Y104.436 E17.9101 F1400
G1 X108.562 Y96.321 E18.1935 F1400
G1 X112.797 Y103.717 E18.4770 F1400
G1 X121.128 Y101.915 E18.7605 F1400
G1 X116.840 Y109.281 E19.0440 F1400
G1 X122.566 Y115.595 E19.3275 F1400
; layer 7 z=1.40 r_out=14.05 twist=28.8
G0 X122.308 Y116.766 Z1.400 F4000
G1 X113.638 Y116.007 E19.6169 F1400
G1 X110.294 Y124.042 E19.9064 F1400
G1 X106.617 Y116.154 E20.1959 F1400
G1 X97.986 Y117.276 E20.4853 F1400
G1 X102.979 Y110.147 E20.7748 F1400
G1 X97.692 Y103.234 E21.0643 F1400
G1 X106.362 Y103.993 E21.3537 F1400
G1 X109.706 Y95.958 E21.6432 F1400
G1 X113.383 Y103.846 E21.9327 F1400
G1 X122.014 Y102.724 E22.2221 F1400
G1 X117.021 Y109.853 E22.5116 F1400
G1 X122.308 Y116.766 E22.8011 F1400
; layer 8 z=1.60 r_out=14.33 twist=33.6
G0 X121.940 Y117.933 Z1.600 F4000
G1 X113.187 Y116.420 E23.0965 F1400
G1 X109.100 Y124.306 E23.3920 F1400
G1 X106.034 Y115.970 E23.6874 F1400
G1 X97.160 Y116.374 E23.9828 F1400
G1 X102.847 Y109.550 E24.2783 F1400
G1 X98.060 Y102.067 E24.5737 F1400
G1 X106.813 Y103.580 E24.8692 F1400
G1 X110.900 Y95.694 E25.1646 F1400
G1 X113.966 Y104.030 E25.4600 F1400
G1 X122.840 Y103.626 E25.7555 F1400
G1 X117.153 Y110.450 E26.0509 F1400
G1 X121.940 Y117.933 E26.3463 F1400
; layer 9 z=1.80 r_out=14.62 twist=38.4
G0 X121.460 Y119.083 Z1.800 F4000
G1 X112.692 Y116.798 E26.6477 F1400
G1 X107.864 Y124.466 E26.9491 F1400
G1 X105.458 Y115.730 E27.2505 F1400
G1 X96.404 Y115.383 E27.5519 F1400
G1 X102.767 Y108.932 E27.8533 F1400
G1 X98.540 Y100.917 E28.1546 F1400
G1 X107.308 Y103.202 E28.4560 F1400
G1 X112.136 Y95.534 E28.7574 F1400
G1 X114.542 Y104.270 E29.0588 F1400
G1 X123.596 Y104.617 E29.3602 F1400
G1 X117.233 Y111.068 E29.6616 F1400
G1 X121.460 Y119.083 E29.9630 F1400
; layer 10 z=2.00 r_out=14.91 twist=43.2
G0 X120.869 Y120.207 Z2.000 F4000
G1 X112.155 Y117.137 E30.2703 F1400
G1 X106.595 Y124.517 E30.5776 F1400
G1 X104.896 Y115.435 E30.8849 F1400
G1 X95.726 Y114.310 E31.1922 F1400
G1 X102.742 Y108.298 E31.4995 F1400
G1 X99.131 Y99.793 E31.8068 F1400
G1 X107.845 Y102.863 E32.1141 F1400
G1 X113.405 Y95.483 E32.4214 F1400
G1 X115.104 Y104.565 E32.7287 F1400
G1 X124.274 Y105.690 E33.0360 F1400
G1 X117.258 Y111.702 E33.3434 F1400
G1 X120.869 Y120.207 E33.6507 F1400
; layer 11 z=2.20 r_out=15.20 twist=48.0
G0 X120.169 Y121.294 Z2.200 F4000
G1 X111.580 Y117.432 E33.9639 F1400
G1 X105.304 Y124.453 E34.2771 F1400
G1 X104.353 Y115.084 E34.5903 F1400
G1 X95.135 Y113.160 E34.9035 F1400
G1 X102.773 Y107.652 E35.2167 F1400
G1 X99.831 Y98.706 E35.5299 F1400
G1 X108.420 Y102.568 E35.8431 F1400
G1 X114.696 Y95.547 E36.1563 F1400
G1 X115.647 Y104.916 E36.4695 F1400
G1 X124.865 Y106.840 E36.7827 F1400
G1 X117.227 Y112.348 E37.0959 F1400
G1 X120.169 Y121.294 E37.4091 F1400
; layer 12 z=2.40 r_out=15.48 twist=52.8
G0 X119.360 Y122.332 Z2.400 F4000
G1 X110.970 Y117.680 E37.7282 F1400
G1 X104.001 Y124.272 E38.0473 F1400
G1 X103.834 Y114.680 E38.3664 F1400
G1 X94.640 Y111.940 E38.6854 F1400
G1 X102.864 Y107.000 E39.0045 F1400
G1 X100.640 Y97.668 E39.3236 F1400
G1 X109.030 Y102.320 E39.6427 F1400
G1 X115.999 Y95.728 E39.9617 F1400
G1 X116.166 Y105.320 E40.2808 F1400
G1 X125.360 Y108.060 E40.5999 F1400
G1 X117.136 Y113.000 E40.9190 F1400
G1 X119.360 Y122.332 E41.2380 F1400
; layer 13 z=2.60 r_out=15.76 twist=57.6
G0 X118.447 Y123.311 Z2.600 F4000
G1 X110.330 Y117.876 E41.5630 F1400
G1 X102.696 Y123.971 E41.8879 F1400
G1 X103.345 Y114.224 E42.2128 F1400
G1 X94.249 Y110.660 E42.5377 F1400
G1 X103.015 Y106.348 E42.8626 F1400
G1 X101.553 Y96.689 E43.1875 F1400
G1 X109.670 Y102.124 E43.5124 F1400
G1 X117.304 Y96.029 E43.8373 F1400
G1 X116.655 Y105.776 E44.1623 F1400
G1 X125.751 Y109.340 E44.4872 F1400
G1 X116.985 Y113.652 E44.8121 F1400
G1 X118.447 Y123.311 E45.1370 F1400
; layer 14 z=2.80 r_out=16.05 twist=62.4
G0 X117.434 Y124.220 Z2.800 F4000
G1 X109.664 Y118.016 E45.4677 F1400
G1 X101.402 Y123.548 E45.7984 F1400
G1 X102.890 Y113.717 E46.1291 F1400
G1 X93.968 Y109.328 E46.4598 F1400
G1 X103.226 Y105.701 E46.7906 F1400
G1 X102.566 Y95.780 E47.1213 F1400
G1 X110.336 Y101.984 E47.4520 F1400
G1 X118.598 Y96.452 E47.7827 F1400
G1 X117.110 Y106.283 E48.1134 F1400
G1 X126.032 Y110.672 E48.4441 F1400
G1 X116.774 Y114.299 E48.7749 F1400
G1 X117.434 Y124.220 E49.1056 F1400
; layer 15 z=3.00 r_out=16.33 twist=67.2
G0 X116.327 Y125.051 Z3.000 F4000
G1 X108.977 Y118.099 E49.4421 F1400
G1 X100.129 Y123.004 E49.7785 F1400
G1 X102.475 Y113.163 E50.1150 F1400
G1 X93.802 Y107.954 E50.4515 F1400
G1 X103.498 Y105.065 E50.7880 F1400
G1 X103.673 Y94.949 E51.1245 F1400
G1 X111.023 Y101.901 E51.4609 F1400
G1 X119.871 Y96.996 E51.7974 F1400
G1 X117.525 Y106.837 E52.1339 F1400
G1 X126.198 Y112.046 E52.4704 F1400
G1 X116.502 Y114.935 E52.8069 F1400
G1 X116.327 Y125.051 E53.1433 F1400
; layer 16 z=3.20 r_out=16.60 twist=72.0
G0 X115.131 Y125.791 Z3.200 F4000
G1 X108.274 Y118.121 E53.4856 F1400
G1 X98.890 Y122.339 E53.8278 F1400
G1 X102.104 Y112.565 E54.1700 F1400
G1 X93.759 Y106.548 E54.5122 F1400
G1 X103.830 Y104.445 E54.8544 F1400
G1 X104.869 Y94.209 E55.1966 F1400
G1 X111.726 Y101.879 E55.5388 F1400
G1 X121.110 Y97.661 E55.8810 F1400
G1 X117.896 Y107.435 E56.2232 F1400
G1 X126.241 Y113.452 E56.5654 F1400
G1 X116.170 Y115.555 E56.9076 F1400
G1 X115.131 Y125.791 E57.2499 F1400
; layer 17 z=3.40 r_out=16.88 twist=76.8
G0 X113.855 Y126.434 Z3.400 F4000
G1 X107.561 Y118.080 E57.5978 F1400
G1 X97.695 Y121.555 E57.9456 F1400
G1 X101.783 Y111.927 E58.2935 F1400
G1 X93.840 Y105.121 E58.6414 F1400
G1 X104.222 Y103.848 E58.9893 F1400
G1 X106.145 Y93.566 E59.3372 F1400
G1 X112.439 Y101.920 E59.6851 F1400
G1 X122.305 Y98.445 E60.0330 F1400
G1 X118.217 Y108.073 E60.3809 F1400
G1 X126.160 Y114.879 E60.7288 F1400
G1 X115.778 Y116.152 E61.0767 F1400
G1 X113.855 Y126.434 E61.4246 F1400
; layer 18 z=3.60 r_out=17.15 twist=81.6
G0 X112.506 Y126.970 Z3.600 F4000
G1 X106.843 Y117.975 E61.7781 F1400
G1 X96.557 Y120.655 E62.1317 F1400
G1 X101.515 Y111.253 E62.4852 F1400
G1 X94.051 Y103.685 E62.8387 F1400
G1 X104.672 Y103.278 E63.1923 F1400
G1 X107.494 Y93.030 E63.5458 F1400
G1 X113.157 Y102.025 E63.8994 F1400
G1 X123.443 Y99.345 E64.2529 F1400
G1 X118.485 Y108.747 E64.6064 F1400
G1 X125.949 Y116.315 E64.9600 F1400
G1 X115.328 Y116.722 E65.3135 F1400
G1 X112.506 Y126.970 E65.6670 F1400
; layer 19 z=3.80 r_out=17.43 twist=86.4
G0 X111.094 Y127.391 Z3.800 F4000
G1 X106.126 Y117.804 E66.0262 F1400
G1 X95.486 Y119.643 E66.3853 F1400
G1 X101.305 Y110.547 E66.7444 F1400
G1 X94.392 Y102.252 E67.1036 F1400
G1 X105.179 Y102.743 E67.4627 F1400
G1 X108.906 Y92.609 E67.8218 F1400
G1 X113.874 Y102.196 E68.1810 F1400
G1 X124.514 Y100.357 E68.5401 F1400
G1 X118.695 Y109.453 E68.8992 F1400
G1 X125.608 Y117.748 E69.2583 F1400
G1 X114.821 Y117.257 E69.6175 F1400
G1 X111.094 Y127.391 E69.9766 F1400
; layer 20 z=4.00 r_out=17.69 twist=91.2
G0 X109.629 Y127.690 Z4.000 F4000
G1 X105.417 Y117.568 E70.3413 F1400
G1 X94.494 Y118.524 E70.7060 F1400
G1 X101.155 Y109.815 E71.0706 F1400
G1 X94.865 Y100.834 E71.4353 F1400
G1 X105.738 Y102.247 E71.8000 F1400
G1 X110.371 Y92.310 E72.1647 F1400
G1 X114.583 Y102.432 E72.5294 F1400
G1 X125.506 Y101.476 E72.8940 F1400
G1 X118.845 Y110.185 E73.2587 F1400
G1 X125.135 Y119.166 E73.6234 F1400
G1 X114.262 Y117.753 E73.9881 F1400
G1 X109.629 Y127.690 E74.3527 F1400
; layer 21 z=4.20 r_out=17.96 twist=96.0
G0 X108.123 Y127.863 Z4.200 F4000
G1 X104.721 Y117.265 E74.7229 F1400
G1 X93.592 Y117.305 E75.0931 F1400
G1 X101.069 Y109.061 E75.4633 F1400
G1 X95.469 Y99.443 E75.8334 F1400
G1 X106.347 Y101.796 E76.2036 F1400
G1 X111.877 Y92.137 E76.5738 F1400
G1 X115.279 Y102.735 E76.9439 F1400
G1 X126.408 Y102.695 E77.3141 F1400
G1 X118.931 Y110.939 E77.6843 F1400
G1 X124.531 Y120.557 E78.0545 F1400
G1 X113.653 Y118.204 E78.4246 F1400
G1 X108.123 Y127.863 E78.7948 F1400
; layer 22 z=4.40 r_out=18.22 twist=100.8
G0 X106.585 Y127.902 Z4.400 F4000
G1 X104.046 Y116.898 E79.1704 F1400
G1 X92.789 Y115.994 E79.5460 F1400
G1 X101.049 Y108.292 E79.9216 F1400
G1 X96.204 Y98.091 E80.2973 F1400
G1 X107.003 Y101.394 E80.6729 F1400
G1 X113.415 Y92.098 E81.0485 F1400
G1 X115.954 Y103.102 E81.4241 F1400
G1 X127.211 Y104.006 E81.7997 F1400
G1 X118.951 Y111.708 E82.1753 F1400
G1 X123.796 Y121.909 E82.5509 F1400
G1 X112.997 Y118.606 E82.9265 F1400
G1 X106.585 Y127.902 E83.3022 F1400
; layer 23 z=4.60 r_out=18.49 twist=105.6
G0 X105.029 Y127.805 Z4.600 F4000
G1 X103.396 Y116.467 E83.6832 F1400
G1 X92.095 Y114.597 E84.0642 F1400
G1 X101.097 Y107.514 E84.4451 F1400
G1 X97.066 Y96.792 E84.8261 F1400
G1 X107.701 Y101.047 E85.2071 F1400
G1 X114.971 Y92.195 E85.5881 F1400
G1 X116.604 Y103.533 E85.9691 F1400
G1 X127.905 Y105.403 E86.3501 F1400
G1 X118.903 Y112.486 E86.7311 F1400
G1 X122.934 Y123.208 E87.1121 F1400
G1 X112.299 Y118.953 E87.4931 F1400
G1 X105.029 Y127.805 E87.8741 F1400
; layer 24 z=4.80 r_out=18.74 twist=110.4
G0 X103.466 Y127.569 Z4.800 F4000
G1 X102.779 Y115.974 E88.2604 F1400
G1 X91.518 Y113.126 E88.6468 F1400
G1 X101.216 Y106.733 E89.0331 F1400
G1 X98.052 Y95.557 E89.4194 F1400
G1 X108.437 Y100.759 E89.8057 F1400
G1 X116.534 Y92.431 E90.1921 F1400
G1 X117.221 Y104.026 E90.5784 F1400
G1 X128.482 Y106.874 E90.9647 F1400
G1 X118.784 Y113.267 E91.3510 F1400
G1 X121.948 Y124.443 E91.7373 F1400
G1 X111.563 Y119.241 E92.1237 F1400
G1 X103.466 Y127.569 E92.5100 F1400
; layer 25 z=5.00 r_out=19.00 twist=115.2
G0 X101.910 Y127.192 Z5.000 F4000
G1 X102.199 Y115.422 E92.9016 F1400
G1 X91.067 Y111.590 E93.2932 F1400
G1 X101.404 Y105.955 E93.6848 F1400
G1 X99.156 Y94.398 E94.0763 F1400
G1 X109.205 Y100.533 E94.4679 F1400
G1 X118.090 Y92.808 E94.8595 F1400
G1 X117.801 Y104.578 E95.2511 F1400
G1 X128.933 Y108.410 E95.6427 F1400
G1 X118.596 Y114.045 E96.0343 F1400
G1 X120.844 Y125.602 E96.4259 F1400
G1 X110.795 Y119.467 E96.8175 F1400
G1 X101.910 Y127.192 E97.2090 F1400
; layer 26 z=5.20 r_out=19.25 twist=120.0
G0 X100.374 Y126.673 Z5.200 F4000
G1 X101.663 Y114.813 E97.6058 F1400
G1 X90.748 Y110.000 E98.0026 F1400
G1 X101.663 Y105.187 E98.3994 F1400
G1 X100.374 Y93.327 E98.7962 F1400
G1 X110.000 Y100.374 E99.1930 F1400
G1 X119.626 Y93.327 E99.5898 F1400
G1 X118.337 Y105.187 E99.9866 F1400
G1 X129.252 Y110.000 E100.3834 F1400
G1 X118.337 Y114.813 E100.7801 F1400
G1 X119.626 Y126.673 E101.1769 F1400
G1 X110.000 Y119.626 E101.5737 F1400
G1 X100.374 Y126.673 E101.9705 F1400
; layer 27 z=5.40 r_out=19.50 twist=124.8
G0 X98.870 Y126.014 Z5.400 F4000
G1 X101.177 Y114.152 E102.3724 F1400
G1 X90.567 Y108.368 E102.7744 F1400
G1 X101.993 Y104.435 E103.1763 F1400
G1 X101.697 Y92.354 E103.5782 F1400
G1 X110.816 Y100.283 E103.9801 F1400
G1 X121.130 Y93.986 E104.3821 F1400
G1 X118.823 Y105.848 E104.7840 F1400
G1 X129.433 Y111.632 E105.1859 F1400
G1 X118.007 Y115.565 E105.5878 F1400
G1 X118.303 Y127.646 E105.9898 F1400
G1 X109.184 Y119.717 E106.3917 F1400
G1 X98.870 Y126.014 E106.7936 F1400
; layer 28 z=5.60 r_out=19.75 twist=129.6
G0 X97.412 Y125.216 Z5.600 F4000
G1 X100.746 Y113.442 E107.2006 F1400
G1 X90.529 Y106.707 E107.6076 F1400
G1 X102.392 Y103.706 E108.0146 F1400
G1 X103.117 Y91.491 E108.4216 F1400
G1 X111.647 Y100.265 E108.8286 F1400
G1 X122.588 Y94.784 E109.2356 F1400
G1 X119.254 Y106.558 E109.6426 F1400
G1 X129.471 Y113.293 E110.0496 F1400
G1 X117.608 Y116.294 E110.4565 F1400
G1 X116.883 Y128.509 E110.8635 F1400
G1 X108.353 Y119.735 E111.2705 F1400
G1 X97.412 Y125.216 E111.6775 F1400
; layer 29 z=5.80 r_out=19.99 twist=134.4
G0 X96.014 Y124.282 Z5.800 F4000
G1 X100.373 Y112.688 E112.0895 F1400
G1 X90.638 Y105.029 E112.5015 F1400
G1 X102.859 Y103.007 E112.9135 F1400
G1 X104.624 Y90.746 E113.3255 F1400
G1 X112.486 Y100.319 E113.7375 F1400
G1 X123.986 Y95.718 E114.1495 F1400
G1 X119.627 Y107.312 E114.5615 F1400
G1 X129.362 Y114.971 E114.9735 F1400
G1 X117.141 Y116.993 E115.3854 F1400
G1 X115.376 Y129.254 E115.7974 F1400
G1 X107.514 Y119.681 E116.2094 F1400
G1 X96.014 Y124.282 E116.6214 F1400
; layer 30 z=6.00 r_out=20.23 twist=139.2
G0 X94.687 Y123.218 Z6.000 F4000
G1 X100.065 Y111.895 E117.0383 F1400
G1 X90.896 Y103.347 E117.4553 F1400
G1 X103.391 Y102.343 E117.8722 F1400
G1 X106.209 Y90.129 E118.2891 F1400
G1 X113.326 Y100.448 E118.7060 F1400
G1 X125.313 Y96.782 E119.1229 F1400
G1 X119.935 Y108.105 E119.5398 F1400
G1 X129.104 Y116.653 E119.9568 F1400
G1 X116.609 Y117.657 E120.3737 F1400
G1 X113.791 Y129.871 E120.7906 F1400
G1 X106.674 Y119.552 E121.2075 F1400
G1 X94.687 Y123.218 E121.6244 F1400
; layer 31 z=6.20 r_out=20.46 twist=144.0
G0 X93.444 Y122.029 Z6.200 F4000
G1 X99.824 Y111.070 E122.0462 F1400
G1 X91.305 Y101.676 E122.4680 F1400
G1 X103.986 Y101.722 E122.8897 F1400
G1 X107.861 Y89.648 E123.3115 F1400
G1 X114.162 Y100.652 E123.7333 F1400
G1 X126.556 Y97.971 E124.1550 F1400
G1 X120.176 Y108.930 E124.5768 F1400
G1 X128.695 Y118.324 E124.9986 F1400
G1 X116.014 Y118.278 E125.4203 F1400
G1 X112.139 Y130.352 E125.8421 F1400
G1 X105.838 Y119.348 E126.2639 F1400
G1 X93.444 Y122.029 E126.6856 F1400
; layer 32 z=6.40 r_out=20.70 twist=148.8
G0 X92.297 Y120.721 Z6.400 F4000
G1 X99.654 Y110.217 E127.1122 F1400
G1 X91.864 Y100.030 E127.5387 F1400
G1 X104.639 Y101.149 E127.9653 F1400
G1 X109.567 Y89.308 E128.3918 F1400
G1 X114.985 Y100.932 E128.8184 F1400
G1 X127.703 Y99.279 E129.2449 F1400
G1 X120.346 Y109.783 E129.6714 F1400
G1 X128.136 Y119.970 E130.0980 F1400
G1 X115.361 Y118.851 E130.5245 F1400
G1 X110.433 Y130.692 E130.9511 F1400
G1 X105.015 Y119.068 E131.3776 F1400
G1 X92.297 Y120.721 E131.8042 F1400
; layer 33 z=6.60 r_out=20.92 twist=153.6
G0 X91.258 Y119.304 Z6.600 F4000
G1 X99.559 Y109.343 E132.2354 F1400
G1 X92.572 Y98.421 E132.6666 F1400
G1 X105.348 Y100.629 E133.0979 F1400
G1 X111.314 Y89.117 E133.5291 F1400
G1 X115.790 Y101.286 E133.9604 F1400
G1 X128.742 Y100.696 E134.3916 F1400
G1 X120.441 Y110.657 E134.8228 F1400
G1 X127.428 Y121.579 E135.2541 F1400
G1 X114.652 Y119.371 E135.6853 F1400
G1 X108.686 Y130.883 E136.1166 F1400
G1 X104.210 Y118.714 E136.5478 F1400
G1 X91.258 Y119.304 E136.9790 F1400
; layer 34 z=6.80 r_out=21.15 twist=158.4
G0 X90.337 Y117.785 Z6.800 F4000
G1 X99.539 Y108.455 E137.4149 F1400
G1 X93.427 Y96.864 E137.8507 F1400
G1 X106.107 Y100.169 E138.2866 F1400
G1 X113.089 Y89.079 E138.7225 F1400
G1 X116.568 Y101.713 E139.1583 F1400
G1 X129.663 Y102.215 E139.5942 F1400
G1 X120.461 Y111.545 E140.0300 F1400
G1 X126.573 Y123.136 E140.4659 F1400
G1 X113.893 Y119.831 E140.9017 F1400
G1 X106.911 Y130.921 E141.3376 F1400
G1 X103.432 Y118.287 E141.7734 F1400
G1 X90.337 Y117.785 E142.2093 F1400
; layer 35 z=7.00 r_out=21.37 twist=163.2
G0 X89.544 Y116.176 Z7.000 F4000
G1 X99.598 Y107.560 E142.6497 F1400
G1 X94.424 Y95.373 E143.0901 F1400
G1 X106.912 Y99.772 E143.5305 F1400
G1 X114.879 Y89.197 E143.9709 F1400
G1 X117.314 Y102.212 E144.4112 F1400
G1 X130.456 Y103.824 E144.8516 F1400
G1 X120.402 Y112.440 E145.2920 F1400
G1 X125.576 Y124.627 E145.7324 F1400
G1 X113.088 Y120.228 E146.1728 F1400
G1 X105.121 Y130.803 E146.6132 F1400
G1 X102.686 Y117.788 E147.0536 F1400
G1 X89.544 Y116.176 E147.4940 F1400
; layer 36 z=7.20 r_out=21.58 twist=168.0
G0 X88.888 Y114.487 Z7.200 F4000
G1 X99.736 Y106.665 E147.9388 F1400
G1 X95.558 Y93.960 E148.3836 F1400
G1 X107.756 Y99.444 E148.8285 F1400
G1 X116.670 Y89.473 E149.2733 F1400
G1 X118.020 Y102.779 E149.7181 F1400
G1 X131.112 Y105.513 E150.1630 F1400
G1 X120.264 Y113.335 E150.6078 F1400
G1 X124.442 Y126.040 E151.0527 F1400
G1 X112.244 Y120.556 E151.4975 F1400
G1 X103.330 Y130.527 E151.9423 F1400
G1 X101.980 Y117.221 E152.3872 F1400
G1 X88.888 Y114.487 E152.8320 F1400
; layer 37 z=7.40 r_out=21.80 twist=172.8
G0 X88.377 Y112.732 Z7.400 F4000
G1 X99.954 Y105.777 E153.2812 F1400
G1 X96.823 Y92.639 E153.7304 F1400
G1 X108.634 Y99.188 E154.1796 F1400
G1 X118.446 Y89.908 E154.6288 F1400
G1 X118.680 Y103.411 E155.0780 F1400
G1 X131.623 Y107.268 E155.5272 F1400
G1 X120.046 Y114.223 E155.9764 F1400
G1 X123.177 Y127.361 E156.4256 F1400
G1 X111.366 Y120.812 E156.8748 F1400
G1 X101.554 Y130.092 E157.3240 F1400
G1 X101.320 Y116.589 E157.7732 F1400
G1 X88.377 Y112.732 E158.2224 F1400
; layer 38 z=7.60 r_out=22.00 twist=177.6
G0 X88.017 Y110.921 Z7.600 F4000
G1 X100.251 Y104.903 E158.6758 F1400
G1 X98.210 Y91.423 E159.1293 F1400
G1 X109.539 Y99.008 E159.5828 F1400
G1 X120.194 Y90.501 E160.0363 F1400
G1 X119.289 Y104.105 E160.4897 F1400
G1 X131.983 Y109.079 E160.9432 F1400
G1 X119.749 Y115.097 E161.3967 F1400
G1 X121.790 Y128.577 E161.8501 F1400
G1 X110.461 Y120.992 E162.3036 F1400
G1 X99.806 Y129.499 E162.7571 F1400
G1 X100.711 Y115.895 E163.2106 F1400
G1 X88.017 Y110.921 E163.6640 F1400
; layer 39 z=7.80 r_out=22.21 twist=182.4
G0 X87.814 Y109.070 Z7.800 F4000
G1 X100.626 Y104.051 E164.1217 F1400
G1 X99.712 Y90.321 E164.5793 F1400
G1 X110.465 Y98.907 E165.0370 F1400
G1 X121.898 Y91.251 E165.4946 F1400
G1 X119.839 Y104.856 E165.9523 F1400
G1 X132.186 Y110.930 E166.4099 F1400
G1 X119.374 Y115.949 E166.8676 F1400
G1 X120.288 Y129.679 E167.3253 F1400
G1 X109.535 Y121.093 E167.7829 F1400
G1 X98.102 Y128.749 E168.2406 F1400
G1 X100.161 Y115.144 E168.6982 F1400
G1 X87.814 Y109.070 E169.1559 F1400
; layer 40 z=8.00 r_out=22.40 twist=187.2
G0 X87.773 Y107.192 Z8.000 F4000
G1 X101.077 Y103.227 E169.6176 F1400
G1 X101.318 Y89.347 E170.0794 F1400
G1 X111.404 Y98.886 E170.5411 F1400
G1 X123.545 Y92.155 E171.0028 F1400
G1 X120.327 Y105.659 E171.4646 F1400
G1 X132.227 Y112.808 E171.9263 F1400
G1 X118.923 Y116.773 E172.3881 F1400
G1 X118.682 Y130.653 E172.8498 F1400
G1 X108.596 Y121.114 E173.3116 F1400
G1 X96.455 Y127.845 E173.7733 F1400
G1 X99.673 Y114.341 E174.2351 F1400
G1 X87.773 Y107.192 E174.6968 F1400
; layer 41 z=8.20 r_out=22.60 twist=192.0
G0 X87.896 Y105.302 Z8.200 F4000
G1 X101.603 Y102.440 E175.1625 F1400
G1 X103.017 Y88.508 E175.6283 F1400
G1 X112.349 Y98.948 E176.0940 F1400
G1 X125.121 Y93.206 E176.5598 F1400
G1 X120.746 Y106.508 E177.0255 F1400
G1 X132.104 Y114.698 E177.4912 F1400
G1 X118.397 Y117.560 E177.9570 F1400
G1 X116.983 Y131.492 E178.4227 F1400
G1 X107.651 Y121.052 E178.8885 F1400
G1 X94.879 Y126.794 E179.3542 F1400
G1 X99.254 Y113.492 E179.8199 F1400
G1 X87.896 Y105.302 E180.2857 F1400
; layer 42 z=8.40 r_out=22.79 twist=196.8
G0 X88.185 Y103.414 Z8.400 F4000
G1 X102.201 Y101.694 E180.7553 F1400
G1 X104.797 Y87.815 E181.2250 F1400
G1 X113.293 Y99.093 E181.6946 F1400
G1 X126.611 Y94.401 E182.1642 F1400
G1 X121.093 Y107.398 E182.6339 F1400
G1 X131.815 Y116.586 E183.1035 F1400
G1 X117.799 Y118.306 E183.5732 F1400
G1 X115.203 Y132.185 E184.0428 F1400
G1 X106.707 Y120.907 E184.5125 F1400
G1 X93.389 Y125.599 E184.9821 F1400
G1 X98.907 Y112.602 E185.4517 F1400
G1 X88.185 Y103.414 E185.9214 F1400
; layer 43 z=8.60 r_out=22.97 twist=201.6
G0 X88.641 Y101.544 Z8.600 F4000
G1 X102.866 Y100.999 E186.3948 F1400
G1 X106.644 Y87.275 E186.8683 F1400
G1 X114.228 Y99.321 E187.3417 F1400
G1 X128.003 Y95.731 E187.8152 F1400
G1 X121.363 Y108.322 E188.2886 F1400
G1 X131.359 Y118.456 E188.7620 F1400
G1 X117.134 Y119.001 E189.2355 F1400
G1 X113.356 Y132.725 E189.7089 F1400
G1 X105.772 Y120.679 E190.1824 F1400
G1 X91.997 Y124.269 E190.6558 F1400
G1 X98.637 Y111.678 E191.1293 F1400
G1 X88.641 Y101.544 E191.6027 F1400
; layer 44 z=8.80 r_out=23.15 twist=206.4
G0 X89.263 Y99.706 Z8.800 F4000
G1 X103.594 Y100.358 E192.0799 F1400
G1 X108.546 Y86.894 E192.5570 F1400
G1 X115.147 Y99.632 E193.0341 F1400
G1 X129.283 Y97.188 E193.5113 F1400
G1 X121.553 Y109.273 E193.9884 F1400
G1 X130.737 Y120.294 E194.4656 F1400
G1 X116.406 Y119.642 E194.9427 F1400
G1 X111.454 Y133.106 E195.4199 F1400
G1 X104.853 Y120.368 E195.8970 F1400
G1 X90.717 Y122.812 E196.3742 F1400
G1 X98.447 Y110.727 E196.8513 F1400
G1 X89.263 Y99.706 E197.3285 F1400
; layer 45 z=9.00 r_out=23.33 twist=211.2
G0 X90.048 Y97.916 Z9.000 F4000
G1 X104.381 Y99.780 E197.8092 F1400
G1 X110.489 Y86.679 E198.2900 F1400
G1 X116.042 Y100.024 E198.7707 F1400
G1 X130.441 Y98.762 E199.2515 F1400
G1 X121.661 Y110.244 E199.7322 F1400
G1 X129.952 Y122.084 E200.2130 F1400
G1 X115.619 Y120.220 E200.6937 F1400
G1 X109.511 Y133.321 E201.1745 F1400
G1 X103.958 Y119.976 E201.6552 F1400
G1 X89.559 Y121.238 E202.1360 F1400
G1 X98.339 Y109.756 E202.6167 F1400
G1 X90.048 Y97.916 E203.0975 F1400
; layer 46 z=9.20 r_out=23.50 twist=216.0
G0 X90.991 Y96.189 Z9.200 F4000
G1 X105.222 Y99.268 E203.5817 F1400
G1 X112.456 Y86.633 E204.0660 F1400
G1 X116.905 Y100.496 E204.5502 F1400
G1 X131.465 Y100.443 E205.0345 F1400
G1 X121.684 Y111.228 E205.5187 F1400
G1 X129.009 Y123.811 E206.0030 F1400
G1 X114.778 Y120.732 E206.4872 F1400
G1 X107.544 Y133.367 E206.9715 F1400
G1 X103.095 Y119.504 E207.4557 F1400
G1 X88.535 Y119.557 E207.9400 F1400
G1 X98.316 Y108.772 E208.4243 F1400
G1 X90.991 Y96.189 E208.9085 F1400
; layer 47 z=9.40 r_out=23.66 twist=220.8
G0 X92.089 Y94.539 Z9.400 F4000
G1 X106.109 Y98.828 E209.3961 F1400
G1 X114.434 Y86.758 E209.8838 F1400
G1 X117.730 Y101.044 E210.3714 F1400
G1 X132.345 Y102.219 E210.8591 F1400
G1 X121.621 Y112.217 E211.3467 F1400
G1 X127.911 Y125.461 E211.8344 F1400
G1 X113.891 Y121.172 E212.3220 F1400
G1 X105.566 Y133.242 E212.8097 F1400
G1 X102.270 Y118.956 E213.2973 F1400
G1 X87.655 Y117.781 E213.7850 F1400
G1 X98.379 Y107.783 E214.2726 F1400
G1 X92.089 Y94.539 E214.7603 F1400
; layer 48 z=9.60 r_out=23.82 twist=225.6
G0 X93.334 Y92.981 Z9.600 F4000
G1 X107.038 Y98.464 E215.2512 F1400
G1 X116.406 Y87.057 E215.7422 F1400
G1 X118.510 Y101.667 E216.2331 F1400
G1 X133.072 Y104.076 E216.7240 F1400
G1 X121.472 Y113.203 E217.2150 F1400
G1 X126.666 Y127.019 E217.7059 F1400
G1 X112.962 Y121.536 E218.1969 F1400
G1 X103.594 Y132.943 E218.6878 F1400
G1 X101.490 Y118.333 E219.1787 F1400
G1 X86.928 Y115.924 E219.6697 F1400
G1 X98.528 Y106.797 E220.1606 F1400
G1 X93.334 Y92.981 E220.6515 F1400
; layer 49 z=9.80 r_out=23.98 twist=230.4
G0 X94.718 Y91.527 Z9.800 F4000
G1 X108.001 Y98.180 E221.1457 F1400
G1 X118.357 Y87.529 E221.6398 F1400
G1 X119.237 Y102.359 E222.1339 F1400
G1 X133.639 Y106.002 E222.6280 F1400
G1 X121.236 Y114.179 E223.1222 F1400
G1 X125.282 Y128.473 E223.6163 F1400
G1 X111.999 Y121.820 E224.1104 F1400
G1 X101.643 Y132.471 E224.6045 F1400
G1 X100.763 Y117.641 E225.0987 F1400
G1 X86.361 Y113.998 E225.5928 F1400
G1 X98.764 Y105.821 E226.0869 F1400
G1 X94.718 Y91.527 E226.5810 F1400
; layer 50 z=10.00 r_out=24.12 twist=235.2
G0 X96.232 Y90.190 Z10.000 F4000
G1 X108.991 Y97.980 E227.0782 F1400
G1 X120.272 Y88.172 E227.5754 F1400
G1 X119.905 Y103.116 E228.0726 F1400
G1 X134.040 Y107.981 E228.5698 F1400
G1 X120.914 Y115.136 E229.0670 F1400
G1 X123.768 Y129.810 E229.5642 F1400
G1 X111.009 Y122.020 E230.0614 F1400
G1 X99.728 Y131.828 E230.5586 F1400
G1 X100.095 Y116.884 E231.0558 F1400
G1 X85.960 Y112.019 E231.5530 F1400
G1 X99.086 Y104.864 E232.0502 F1400
G1 X96.232 Y90.190 E232.5474 F1400
; layer 51 z=10.20 r_out=24.27 twist=240.0
G0 X97.866 Y88.983 Z10.200 F4000
G1 X110.000 Y97.866 E233.0476 F1400
G1 X122.134 Y88.983 E233.5478 F1400
G1 X120.508 Y103.933 E234.0479 F1400
G1 X134.268 Y110.000 E234.5481 F1400
G1 X120.508 Y116.067 E235.0483 F1400
G1 X122.134 Y131.017 E235.5484 F1400
G1 X110.000 Y122.134 E236.0486 F1400
G1 X97.866 Y131.017 E236.5488 F1400
G1 X99.492 Y116.067 E237.0489 F1400
G1 X85.732 Y110.000 E237.5491 F1400
G1 X99.492 Y103.933 E238.0493 F1400
G1 X97.866 Y88.983 E238.5494 F1400
; layer 52 z=10.40 r_out=24.41 twist=244.8
G0 X99.608 Y87.916 Z10.400 F4000
G1 X111.021 Y97.839 E239.0525 F1400
G1 X123.929 Y89.958 E239.5555 F1400
G1 X121.042 Y104.804 E240.0585 F1400
G1 X134.321 Y112.042 E240.5615 F1400
G1 X120.021 Y116.965 E241.0645 F1400
G1 X120.392 Y132.084 E241.5676 F1400
G1 X108.979 Y122.161 E242.0706 F1400
G1 X96.071 Y130.042 E242.5736 F1400
G1 X98.958 Y115.196 E243.0766 F1400
G1 X85.679 Y107.958 E243.5796 F1400
G1 X99.979 Y103.035 E244.0827 F1400
G1 X99.608 Y87.916 E244.5857 F1400
; layer 53 z=10.60 r_out=24.54 twist=249.6
G0 X101.446 Y86.999 Z10.600 F4000
G1 X112.046 Y97.902 E245.0915 F1400
G1 X125.642 Y91.092 E245.5972 F1400
G1 X121.500 Y105.723 E246.1030 F1400
G1 X134.196 Y114.092 E246.6088 F1400
G1 X119.454 Y117.821 E247.1145 F1400
G1 X118.554 Y133.001 E247.6203 F1400
G1 X107.954 Y122.098 E248.1261 F1400
G1 X94.358 Y128.908 E248.6318 F1400
G1 X98.500 Y114.277 E249.1376 F1400
G1 X85.804 Y105.908 E249.6433 F1400
G1 X100.546 Y102.179 E250.1491 F1400
G1 X101.446 Y86.999 E250.6549 F1400
; layer 54 z=10.80 r_out=24.67 twist=254.4
G0 X103.366 Y86.241 Z10.800 F4000
G1 X113.067 Y98.054 E251.1633 F1400
G1 X127.259 Y92.376 E251.6717 F1400
G1 X121.879 Y106.683 E252.1801 F1400
G1 X133.893 Y116.135 E252.6885 F1400
G1 X118.812 Y118.630 E253.1969 F1400
G1 X116.634 Y133.759 E253.7053 F1400
G1 X106.933 Y121.946 E254.2136 F1400
G1 X92.741 Y127.624 E254.7220 F1400
G1 X98.121 Y113.317 E255.2304 F1400
G1 X86.107 Y103.865 E255.7388 F1400
G1 X101.188 Y101.370 E256.2472 F1400
G1 X103.366 Y86.241 E256.7556 F1400
; layer 55 z=11.00 r_out=24.79 twist=259.2
G0 X105.355 Y85.649 Z11.000 F4000
G1 X114.076 Y98.295 E257.2665 F1400
G1 X128.766 Y93.802 E257.7774 F1400
G1 X122.175 Y107.677 E258.2884 F1400
G1 X133.411 Y118.152 E258.7993 F1400
G1 X118.099 Y119.383 E259.3102 F1400
G1 X114.645 Y134.351 E259.8211 F1400
G1 X105.924 Y121.705 E260.3320 F1400
G1 X91.234 Y126.198 E260.8429 F1400
G1 X97.825 Y112.323 E261.3538 F1400
G1 X86.589 Y101.848 E261.8647 F1400
G1 X101.901 Y100.617 E262.3756 F1400
G1 X105.355 Y85.649 E262.8866 F1400
; layer 56 z=11.20 r_out=24.91 twist=264.0
G0 X107.397 Y85.230 Z11.200 F4000
G1 X115.065 Y98.624 E263.3999 F1400
G1 X130.149 Y95.361 E263.9132 F1400
G1 X122.385 Y108.698 E264.4265 F1400
G1 X132.753 Y120.130 E264.9398 F1400
G1 X117.320 Y120.075 E265.4531 F1400
G1 X112.603 Y134.770 E265.9664 F1400
G1 X104.935 Y121.376 E266.4797 F1400
G1 X89.851 Y124.639 E266.9930 F1400
G1 X97.615 Y111.302 E267.5064 F1400
G1 X87.247 Y99.870 E268.0197 F1400
G1 X102.680 Y99.925 E268.5330 F1400
G1 X107.397 Y85.230 E269.0463 F1400
; layer 57 z=11.40 r_out=25.02 twist=268.8
G0 X109.476 Y84.989 Z11.400 F4000
G1 X116.026 Y99.039 E269.5619 F1400
G1 X131.399 Y97.041 E270.0775 F1400
G1 X122.506 Y109.738 E270.5931 F1400
G1 X131.922 Y122.052 E271.1087 F1400
G1 X116.480 Y120.699 E271.6243 F1400
G1 X110.524 Y135.011 E272.1399 F1400
G1 X103.974 Y120.961 E272.6555 F1400
G1 X88.601 Y122.959 E273.1710 F1400
G1 X97.494 Y110.262 E273.6866 F1400
G1 X88.078 Y97.948 E274.2022 F1400
G1 X103.520 Y99.301 E274.7178 F1400
G1 X109.476 Y84.989 E275.2334 F1400
; layer 58 z=11.60 r_out=25.12 twist=273.6
G0 X111.577 Y84.928 Z11.600 F4000
G1 X116.951 Y99.538 E275.7512 F1400
G1 X132.502 Y98.830 E276.2689 F1400
G1 X122.536 Y110.789 E276.7867 F1400
G1 X130.925 Y123.902 E277.3045 F1400
G1 X115.585 Y121.251 E277.8222 F1400
G1 X108.423 Y135.072 E278.3400 F1400
G1 X103.049 Y120.462 E278.8577 F1400
G1 X87.498 Y121.170 E279.3755 F1400
G1 X97.464 Y109.211 E279.8933 F1400
G1 X89.075 Y96.098 E280.4110 F1400
G1 X104.415 Y98.749 E280.9288 F1400
G1 X111.577 Y84.928 E281.4465 F1400
; layer 59 z=11.80 r_out=25.22 twist=278.4
G0 X113.684 Y85.049 Z11.800 F4000
G1 X117.833 Y100.117 E281.9664 F1400
G1 X133.450 Y100.715 E282.4862 F1400
G1 X122.475 Y111.842 E283.0060 F1400
G1 X129.766 Y125.666 E283.5258 F1400
G1 X114.642 Y121.725 E284.0456 F1400
G1 X106.316 Y134.951 E284.5654 F1400
G1 X102.167 Y119.883 E285.0852 F1400
G1 X86.550 Y119.285 E285.6050 F1400
G1 X97.525 Y108.158 E286.1248 F1400
G1 X90.234 Y94.334 E286.6446 F1400
G1 X105.358 Y98.275 E287.1644 F1400
G1 X113.684 Y85.049 E287.6842 F1400
; layer 60 z=12.00 r_out=25.31 twist=283.2
G0 X115.781 Y85.354 Z12.000 F4000
G1 X118.665 Y100.773 E288.2060 F1400
G1 X134.234 Y102.683 E288.7277 F1400
G1 X122.323 Y112.890 E289.2494 F1400
G1 X128.454 Y127.329 E289.7712 F1400
G1 X113.658 Y122.117 E290.2929 F1400
G1 X104.219 Y134.646 E290.8146 F1400
G1 X101.335 Y119.227 E291.3364 F1400
G1 X85.766 Y117.317 E291.8581 F1400
G1 X97.677 Y107.110 E292.3798 F1400
G1 X91.546 Y92.671 E292.9016 F1400
G1 X106.342 Y97.883 E293.4233 F1400
G1 X115.781 Y85.354 E293.9450 F1400
; layer 61 z=12.20 r_out=25.40 twist=288.0
G0 X117.850 Y85.841 Z12.200 F4000
G1 X119.439 Y101.501 E294.4686 F1400
G1 X134.847 Y104.719 E294.9921 F1400
G1 X122.080 Y113.925 E295.5157 F1400
G1 X126.998 Y128.878 E296.0392 F1400
G1 X112.641 Y122.424 E296.5628 F1400
G1 X102.150 Y134.159 E297.0863 F1400
G1 X100.561 Y118.499 E297.6098 F1400
G1 X85.153 Y115.281 E298.1334 F1400
G1 X97.920 Y106.075 E298.6569 F1400
G1 X93.002 Y91.122 E299.1805 F1400
G1 X107.359 Y97.576 E299.7040 F1400
G1 X117.850 Y85.841 E300.2275 F1400
; layer 62 z=12.40 r_out=25.48 twist=292.8
G0 X119.876 Y86.507 Z12.400 F4000
G1 X120.149 Y102.296 E300.7528 F1400
G1 X135.283 Y106.806 E301.2780 F1400
G1 X121.747 Y114.938 E301.8032 F1400
G1 X125.408 Y130.299 E302.3285 F1400
G1 X111.597 Y122.642 E302.8537 F1400
G1 X100.124 Y133.493 E303.3789 F1400
G1 X99.851 Y117.704 E303.9041 F1400
G1 X84.717 Y113.194 E304.4294 F1400
G1 X98.253 Y105.062 E304.9546 F1400
G1 X94.592 Y89.701 E305.4798 F1400
G1 X108.403 Y97.358 E306.0051 F1400
G1 X119.876 Y86.507 E306.5303 F1400
; layer 63 z=12.60 r_out=25.56 twist=297.6
G0 X121.842 Y87.348 Z12.600 F4000
G1 X120.791 Y103.152 E307.0571 F1400
G1 X135.538 Y108.930 E307.5839 F1400
G1 X121.326 Y115.921 E308.1107 F1400
G1 X123.696 Y131.581 E308.6374 F1400
G1 X110.535 Y122.769 E309.1642 F1400
G1 X98.158 Y132.652 E309.6910 F1400
G1 X99.209 Y116.848 E310.2178 F1400
G1 X84.462 Y111.070 E310.7446 F1400
G1 X98.674 Y104.079 E311.2714 F1400
G1 X96.304 Y88.419 E311.7982 F1400
G1 X109.465 Y97.231 E312.3250 F1400
G1 X121.842 Y87.348 E312.8518 F1400
; layer 64 z=12.80 r_out=25.63 twist=302.4
G0 X123.733 Y88.360 Z12.800 F4000
G1 X121.357 Y104.063 E313.3800 F1400
G1 X135.608 Y111.073 E313.9082 F1400
G1 X120.820 Y116.867 E314.4365 F1400
G1 X121.874 Y132.713 E314.9647 F1400
G1 X109.463 Y122.804 E315.4929 F1400
G1 X96.267 Y131.640 E316.0212 F1400
G1 X98.643 Y115.937 E316.5494 F1400
G1 X84.392 Y108.927 E317.0776 F1400
G1 X99.180 Y103.133 E317.6059 F1400
G1 X98.126 Y87.287 E318.1341 F1400
G1 X110.537 Y97.196 E318.6623 F1400
G1 X123.733 Y88.360 E319.1906 F1400
; layer 65 z=13.00 r_out=25.69 twist=307.2
G0 X125.535 Y89.534 Z13.000 F4000
G1 X121.843 Y105.022 E319.7201 F1400
G1 X135.491 Y113.220 E320.2497 F1400
G1 X120.233 Y117.767 E320.7792 F1400
G1 X119.957 Y133.686 E321.3088 F1400
G1 X108.390 Y122.746 E321.8383 F1400
G1 X94.465 Y130.466 E322.3679 F1400
G1 X98.157 Y114.978 E322.8974 F1400
G1 X84.509 Y106.780 E323.4270 F1400
G1 X99.767 Y102.233 E323.9565 F1400
G1 X100.043 Y86.314 E324.4861 F1400
G1 X111.610 Y97.254 E325.0156 F1400
G1 X125.535 Y89.534 E325.5452 F1400
; layer 66 z=13.20 r_out=25.75 twist=312.0
G0 X127.231 Y90.863 Z13.200 F4000
G1 X122.246 Y106.021 E326.0759 F1400
G1 X135.189 Y115.354 E326.6067 F1400
G1 X119.569 Y118.616 E327.1374 F1400
G1 X117.958 Y134.492 E327.6682 F1400
G1 X107.323 Y122.595 E328.1989 F1400
G1 X92.769 Y129.137 E328.7297 F1400
G1 X97.754 Y113.979 E329.2604 F1400
G1 X84.811 Y104.646 E329.7912 F1400
G1 X100.431 Y101.384 E330.3219 F1400
G1 X102.042 Y85.508 E330.8527 F1400
G1 X112.677 Y97.405 E331.3834 F1400
G1 X127.231 Y90.863 E331.9141 F1400
; layer 67 z=13.40 r_out=25.80 twist=316.8
G0 X128.810 Y92.336 Z13.400 F4000
G1 X122.561 Y107.054 E332.4460 F1400
G1 X134.703 Y117.458 E332.9778 F1400
G1 X118.832 Y119.405 E333.5096 F1400
G1 X115.892 Y135.122 E334.0414 F1400
G1 X106.271 Y122.351 E334.5732 F1400
G1 X91.190 Y127.664 E335.1050 F1400
G1 X97.439 Y112.946 E335.6369 F1400
G1 X85.297 Y102.542 E336.1687 F1400
G1 X101.168 Y100.595 E336.7005 F1400
G1 X104.108 Y84.878 E337.2323 F1400
G1 X113.729 Y97.649 E337.7641 F1400
G1 X128.810 Y92.336 E338.2959 F1400
; layer 68 z=13.60 r_out=25.85 twist=321.6
G0 X130.258 Y93.943 Z13.600 F4000
G1 X122.786 Y108.112 E338.8287 F1400
G1 X134.035 Y119.516 E339.3615 F1400
G1 X118.028 Y120.129 E339.8942 F1400
G1 X113.776 Y135.573 E340.4270 F1400
G1 X105.242 Y122.017 E340.9597 F1400
G1 X89.742 Y126.057 E341.4925 F1400
G1 X97.214 Y111.888 E342.0253 F1400
G1 X85.965 Y100.484 E342.5580 F1400
G1 X101.972 Y99.871 E343.0908 F1400
G1 X106.224 Y84.427 E343.6235 F1400
G1 X114.758 Y97.983 E344.1563 F1400
G1 X130.258 Y93.943 E344.6891 F1400
; layer 69 z=13.80 r_out=25.89 twist=326.4
G0 X131.564 Y95.673 Z13.800 F4000
G1 X122.919 Y109.187 E345.2227 F1400
G1 X133.190 Y121.511 E345.7562 F1400
G1 X117.164 Y120.782 E346.2898 F1400
G1 X111.626 Y135.839 E346.8234 F1400
G1 X104.244 Y121.595 E347.3570 F1400
G1 X88.436 Y124.327 E347.8906 F1400
G1 X97.081 Y110.813 E348.4241 F1400
G1 X86.810 Y98.489 E348.9577 F1400
G1 X102.836 Y99.218 E349.4913 F1400
G1 X108.374 Y84.161 E350.0249 F1400
G1 X115.756 Y98.405 E350.5585 F1400
G1 X131.564 Y95.673 E351.0920 F1400
; layer 70 z=14.00 r_out=25.92 twist=331.2
G0 X132.717 Y97.511 Z14.000 F4000
G1 X122.959 Y110.271 E351.6263 F1400
G1 X132.174 Y123.429 E352.1606 F1400
G1 X116.244 Y121.358 E352.6949 F1400
G1 X109.457 Y135.918 E353.2292 F1400
G1 X103.286 Y121.087 E353.7634 F1400
G1 X87.283 Y122.489 E354.2977 F1400
G1 X97.041 Y109.729 E354.8320 F1400
G1 X87.826 Y96.571 E355.3663 F1400
G1 X103.756 Y98.642 E355.9005 F1400
G1 X110.543 Y84.082 E356.4348 F1400
G1 X116.714 Y98.913 E356.9691 F1400
G1 X132.717 Y97.511 E357.5034 F1400
; layer 71 z=14.20 r_out=25.95 twist=336.0
G0 X133.707 Y99.445 Z14.200 F4000
G1 X122.904 Y111.356 E358.0382 F1400
G1 X130.995 Y125.254 E358.5730 F1400
G1 X115.278 Y121.854 E359.1079 F1400
G1 X107.287 Y135.809 E359.6427 F1400
G1 X102.373 Y120.497 E360.1776 F1400
G1 X86.293 Y120.555 E360.7124 F1400
G1 X97.096 Y108.644 E361.2473 F1400
G1 X89.005 Y94.746 E361.7821 F1400
G1 X104.722 Y98.146 E362.3170 F1400
G1 X112.713 Y84.191 E362.8518 F1400
G1 X117.627 Y99.503 E363.3866 F1400
G1 X133.707 Y99.445 E363.9215 F1400
; layer 72 z=14.40 r_out=25.97 twist=340.8
G0 X134.528 Y101.459 Z14.400 F4000
G1 X122.756 Y112.433 E364.4568 F1400
G1 X129.661 Y126.971 E364.9921 F1400
G1 X114.271 Y122.264 E365.5274 F1400
G1 X105.133 Y135.512 E366.0626 F1400
G1 X101.515 Y119.830 E366.5979 F1400
G1 X85.472 Y118.541 E367.1332 F1400
G1 X97.244 Y107.567 E367.6685 F1400
G1 X90.339 Y93.029 E368.2038 F1400
G1 X105.729 Y97.736 E368.7391 F1400
G1 X114.867 Y84.488 E369.2744 F1400
G1 X118.485 Y100.170 E369.8097 F1400
G1 X134.528 Y101.459 E370.3449 F1400
; layer 73 z=14.60 r_out=25.99 twist=345.6
G0 X135.171 Y103.537 Z14.600 F4000
G1 X122.515 Y113.494 E370.8805 F1400
G1 X128.183 Y128.568 E371.4161 F1400
G1 X113.231 Y122.586 E371.9518 F1400
G1 X103.011 Y135.030 E372.4874 F1400
G1 X100.716 Y119.091 E373.0230 F1400
G1 X84.829 Y116.463 E373.5586 F1400
G1 X97.485 Y106.506 E374.0942 F1400
G1 X91.817 Y91.432 E374.6298 F1400
G1 X106.769 Y97.414 E375.1654 F1400
G1 X116.989 Y84.970 E375.7010 F1400
G1 X119.284 Y100.909 E376.2366 F1400
G1 X135.171 Y103.537 E376.7722 F1400
; layer 74 z=14.80 r_out=26.00 twist=350.4
G0 X135.633 Y105.665 Z14.800 F4000
G1 X122.183 Y114.531 E377.3080 F1400
G1 X126.571 Y130.031 E377.8438 F1400
G1 X112.168 Y122.816 E378.3796 F1400
G1 X100.938 Y134.366 E378.9154 F1400
G1 X99.985 Y118.286 E379.4512 F1400
G1 X84.367 Y114.335 E379.9869 F1400
G1 X97.817 Y105.469 E380.5227 F1400
G1 X93.429 Y89.969 E381.0585 F1400
G1 X107.832 Y97.184 E381.5943 F1400
G1 X119.062 Y85.634 E382.1301 F1400
G1 X120.015 Y101.714 E382.6659 F1400
G1 X135.633 Y105.665 E383.2017 F1400
; layer 75 z=15.00 r_out=26.00 twist=355.2
G0 X135.909 Y107.824 Z15.000 F4000
G1 X121.763 Y115.535 E383.7376 F1400
G1 X124.839 Y131.350 E384.2734 F1400
G1 X111.088 Y122.954 E384.8093 F1400
G1 X98.930 Y133.526 E385.3451 F1400
G1 X99.325 Y117.419 E385.8810 F1400
G1 X84.091 Y112.176 E386.4168 F1400
G1 X98.237 Y104.465 E386.9527 F1400
G1 X95.161 Y88.650 E387.4886 F1400
G1 X108.912 Y97.046 E388.0244 F1400
G1 X121.070 Y86.474 E388.5603 F1400
G1 X120.675 Y102.581 E389.0961 F1400
G1 X135.909 Y107.824 E389.6320 F1400
; layer 76 z=15.20 r_out=26.00 twist=360.0
G0 X135.997 Y110.000 Z15.200 F4000
G1 X121.257 Y116.499 E390.1678 F1400
G1 X122.998 Y132.514 E390.7036 F1400
G1 X110.000 Y122.998 E391.2394 F1400
G1 X97.002 Y132.514 E391.7752 F1400
G1 X98.743 Y116.499 E392.3109 F1400
G1 X84.003 Y110.000 E392.8467 F1400
G1 X98.743 Y103.501 E393.3825 F1400
G1 X97.002 Y87.486 E393.9183 F1400
G1 X110.000 Y97.002 E394.4541 F1400
G1 X122.998 Y87.486 E394.9899 F1400
G1 X121.257 Y103.501 E395.5257 F1400
G1 X135.997 Y110.000 E396.0615 F1400
; layer 77 z=15.40 r_out=25.99 twist=364.8
G0 X135.897 Y112.175 Z15.400 F4000
G1 X120.670 Y117.416 E396.5971 F1400
G1 X121.065 Y133.514 E397.1327 F1400
G1 X108.913 Y122.948 E397.6683 F1400
G1 X95.168 Y131.340 E398.2039 F1400
G1 X98.243 Y115.533 E398.7395 F1400
G1 X84.103 Y107.825 E399.2751 F1400
G1 X99.330 Y102.584 E399.8107 F1400
G1 X98.935 Y86.486 E400.3463 F1400
G1 X111.087 Y97.052 E400.8819 F1400
G1 X124.832 Y88.660 E401.4175 F1400
G1 X121.757 Y104.467 E401.9531 F1400
G1 X135.897 Y112.175 E402.4887 F1400
; layer 78 z=15.60 r_out=25.97 twist=369.6
G0 X135.609 Y114.331 Z15.600 F4000
G1 X120.006 Y118.278 E403.0240 F1400
G1 X119.053 Y134.343 E403.5593 F1400
G1 X107.834 Y122.804 E404.0946 F1400
G1 X93.445 Y130.012 E404.6299 F1400
G1 X97.828 Y114.527 E405.1652 F1400
G1 X84.391 Y105.669 E405.7005 F1400
G1 X99.994 Y101.722 E406.2358 F1400
G1 X100.947 Y85.657 E406.7710 F1400
G1 X112.166 Y97.196 E407.3063 F1400
G1 X126.555 Y89.988 E407.8416 F1400
G1 X122.172 Y105.473 E408.3769 F1400
G1 X135.609 Y114.331 E408.9122 F1400
; layer 79 z=15.80 r_out=25.95 twist=374.4
G0 X135.136 Y116.454 Z15.800 F4000
G1 X119.271 Y119.078 E409.4470 F1400
G1 X116.979 Y134.995 E409.9819 F1400
G1 X106.773 Y122.568 E410.5167 F1400
G1 X91.843 Y128.541 E411.0516 F1400
G1 X97.503 Y113.489 E411.5864 F1400
G1 X84.864 Y103.546 E412.1213 F1400
G1 X100.729 Y100.922 E412.6561 F1400
G1 X103.021 Y85.005 E413.1910 F1400
G1 X113.227 Y97.432 E413.7258 F1400
G1 X128.157 Y91.459 E414.2606 F1400
G1 X122.497 Y106.511 E414.7955 F1400
G1 X135.136 Y116.454 E415.3303 F1400
; layer 80 z=16.00 r_out=25.92 twist=379.2
G0 X134.481 Y118.525 Z16.000 F4000
G1 X118.469 Y119.812 E415.8646 F1400
G1 X114.858 Y135.464 E416.3989 F1400
G1 X105.737 Y122.241 E416.9332 F1400
G1 X90.376 Y126.939 E417.4674 F1400
G1 X97.268 Y112.429 E418.0017 F1400
G1 X85.519 Y101.475 E418.5360 F1400
G1 X101.531 Y100.188 E419.0703 F1400
G1 X105.142 Y84.536 E419.6045 F1400
G1 X114.263 Y97.759 E420.1388 F1400
G1 X129.624 Y93.061 E420.6731 F1400
G1 X122.732 Y107.571 E421.2074 F1400
G1 X134.481 Y118.525 E421.7416 F1400
; layer 81 z=16.20 r_out=25.89 twist=384.0
G0 X133.651 Y120.530 Z16.200 F4000
G1 X117.609 Y120.473 E422.2752 F1400
G1 X112.706 Y135.748 E422.8088 F1400
G1 X104.735 Y121.826 E423.3424 F1400
G1 X89.055 Y125.218 E423.8760 F1400
G1 X97.126 Y111.353 E424.4095 F1400
G1 X86.349 Y99.470 E424.9431 F1400
G1 X102.391 Y99.527 E425.4767 F1400
G1 X107.294 Y84.252 E426.0103 F1400
G1 X115.265 Y98.174 E426.5439 F1400
G1 X130.945 Y94.782 E427.0775 F1400
G1 X122.874 Y108.647 E427.6110 F1400
G1 X133.651 Y120.530 E428.1446 F1400
; layer 82 z=16.40 r_out=25.85 twist=388.8
G0 X132.652 Y122.453 Z16.400 F4000
G1 X116.695 Y121.056 E428.6774 F1400
G1 X110.541 Y135.844 E429.2101 F1400
G1 X103.773 Y121.326 E429.7429 F1400
G1 X87.889 Y123.391 E430.2757 F1400
G1 X97.078 Y110.271 E430.8084 F1400
G1 X87.348 Y97.547 E431.3412 F1400
G1 X103.305 Y98.944 E431.8739 F1400
G1 X109.459 Y84.156 E432.4067 F1400
G1 X116.227 Y98.674 E432.9395 F1400
G1 X132.111 Y96.609 E433.4722 F1400
G1 X122.922 Y109.729 E434.0050 F1400
G1 X132.652 Y122.453 E434.5378 F1400
; layer 83 z=16.60 r_out=25.80 twist=393.6
G0 X131.493 Y124.280 Z16.600 F4000
G1 X115.737 Y121.556 E435.0696 F1400
G1 X108.380 Y135.753 E435.6014 F1400
G1 X102.860 Y120.746 E436.1332 F1400
G1 X86.887 Y121.473 E436.6650 F1400
G1 X97.123 Y109.190 E437.1968 F1400
G1 X88.507 Y95.720 E437.7286 F1400
G1 X104.263 Y98.444 E438.2605 F1400
G1 X111.620 Y84.247 E438.7923 F1400
G1 X117.140 Y99.254 E439.3241 F1400
G1 X133.113 Y98.527 E439.8559 F1400
G1 X122.877 Y110.810 E440.3877 F1400
G1 X131.493 Y124.280 E440.9195 F1400
; layer 84 z=16.80 r_out=25.75 twist=398.4
G0 X130.182 Y125.996 Z16.800 F4000
G1 X114.740 Y121.972 E441.4503 F1400
G1 X106.238 Y135.476 E441.9810 F1400
G1 X102.002 Y120.091 E442.5118 F1400
G1 X86.056 Y119.480 E443.0425 F1400
G1 X97.262 Y108.119 E443.5733 F1400
G1 X89.818 Y94.004 E444.1040 F1400
G1 X105.260 Y98.028 E444.6348 F1400
G1 X113.762 Y84.524 E445.1655 F1400
G1 X117.998 Y99.909 E445.6963 F1400
G1 X133.944 Y100.520 E446.2270 F1400
G1 X122.738 Y111.881 E446.7577 F1400
G1 X130.182 Y125.996 E447.2885 F1400
; layer 85 z=17.00 r_out=25.69 twist=403.2
G0 X128.730 Y127.589 Z17.000 F4000
G1 X113.713 Y122.299 E447.8180 F1400
G1 X104.133 Y135.015 E448.3476 F1400
G1 X101.206 Y119.365 E448.8771 F1400
G1 X85.403 Y117.426 E449.4067 F1400
G1 X97.492 Y107.066 E449.9363 F1400
G1 X91.270 Y92.411 E450.4658 F1400
G1 X106.287 Y97.701 E450.9954 F1400
G1 X115.867 Y84.985 E451.5249 F1400
G1 X118.794 Y100.635 E452.0545 F1400
G1 X134.597 Y102.574 E452.5840 F1400
G1 X122.508 Y112.934 E453.1136 F1400
G1 X128.730 Y127.589 E453.6431 F1400
; layer 86 z=17.20 r_out=25.63 twist=408.0
G0 X127.150 Y129.047 Z17.200 F4000
G1 X112.664 Y122.535 E454.1713 F1400
G1 X102.080 Y134.376 E454.6996 F1400
G1 X100.477 Y118.575 E455.2278 F1400
G1 X84.930 Y115.329 E455.7560 F1400
G1 X97.812 Y106.040 E456.2843 F1400
G1 X92.850 Y90.953 E456.8125 F1400
G1 X107.336 Y97.465 E457.3407 F1400
G1 X117.920 Y85.624 E457.8690 F1400
G1 X119.523 Y101.425 E458.3972 F1400
G1 X135.070 Y104.671 E458.9254 F1400
G1 X122.188 Y113.960 E459.4537 F1400
G1 X127.150 Y129.047 E459.9819 F1400
; layer 87 z=17.40 r_out=25.56 twist=412.8
G0 X125.454 Y130.359 Z17.400 F4000
G1 X111.602 Y122.679 E460.5087 F1400
G1 X100.095 Y133.563 E461.0355 F1400
G1 X99.820 Y117.727 E461.5623 F1400
G1 X84.641 Y113.204 E462.0891 F1400
G1 X98.219 Y105.048 E462.6159 F1400
G1 X94.546 Y89.641 E463.1427 F1400
G1 X108.398 Y97.321 E463.6694 F1400
G1 X119.905 Y86.437 E464.1962 F1400
G1 X120.180 Y102.273 E464.7230 F1400
G1 X135.359 Y106.796 E465.2498 F1400
G1 X121.781 Y114.952 E465.7766 F1400
G1 X125.454 Y130.359 E466.3034 F1400
; layer 88 z=17.60 r_out=25.48 twist=417.6
G0 X123.655 Y131.517 Z17.600 F4000
G1 X110.534 Y122.731 E466.8286 F1400
G1 X98.193 Y132.584 E467.3539 F1400
G1 X99.241 Y116.828 E467.8791 F1400
G1 X84.538 Y111.067 E468.4043 F1400
G1 X98.708 Y104.097 E468.9295 F1400
G1 X96.345 Y88.483 E469.4548 F1400
G1 X109.466 Y97.269 E469.9800 F1400
G1 X121.807 Y87.416 E470.5052 F1400
G1 X120.759 Y103.172 E471.0305 F1400
G1 X135.462 Y108.933 E471.5557 F1400
G1 X121.292 Y115.903 E472.0809 F1400
G1 X123.655 Y131.517 E472.6061 F1400
; layer 89 z=17.80 r_out=25.40 twist=422.4
G0 X121.769 Y132.512 Z17.800 F4000
G1 X109.468 Y122.690 E473.1297 F1400
G1 X96.389 Y131.448 E473.6532 F1400
G1 X98.744 Y115.884 E474.1768 F1400
G1 X84.620 Y108.936 E474.7003 F1400
G1 X99.276 Y103.194 E475.2238 F1400
G1 X98.231 Y87.488 E475.7474 F1400
G1 X110.532 Y97.310 E476.2709 F1400
G1 X123.611 Y88.552 E476.7945 F1400
G1 X121.256 Y104.116 E477.3180 F1400
G1 X135.380 Y111.064 E477.8416 F1400
G1 X120.724 Y116.806 E478.3651 F1400
G1 X121.769 Y132.512 E478.8886 F1400
; layer 90 z=18.00 r_out=25.31 twist=427.2
G0 X119.810 Y133.337 Z18.000 F4000
G1 X108.414 Y122.558 E479.4104 F1400
G1 X94.695 Y130.164 E479.9321 F1400
G1 X98.332 Y114.905 E480.4538 F1400
G1 X84.885 Y106.827 E480.9756 F1400
G1 X99.918 Y102.347 E481.4973 F1400
G1 X100.190 Y86.663 E482.0190 F1400
G1 X111.586 Y97.442 E482.5408 F1400
G1 X125.305 Y89.836 E483.0625 F1400
G1 X121.668 Y105.095 E483.5843 F1400
G1 X135.115 Y113.173 E484.1060 F1400
G1 X120.082 Y117.653 E484.6277 F1400
G1 X119.810 Y133.337 E485.1495 F1400
; layer 91 z=18.20 r_out=25.22 twist=432.0
G0 X117.794 Y133.987 Z18.200 F4000
G1 X107.378 Y122.335 E485.6693 F1400
G1 X93.124 Y128.743 E486.1891 F1400
G1 X98.007 Y113.897 E486.7089 F1400
G1 X85.330 Y104.756 E487.2287 F1400
G1 X100.628 Y101.562 E487.7485 F1400
G1 X102.206 Y86.013 E488.2683 F1400
G1 X112.622 Y97.665 E488.7881 F1400
G1 X126.876 Y91.257 E489.3079 F1400
G1 X121.993 Y106.103 E489.8277 F1400
G1 X134.670 Y115.244 E490.3475 F1400
G1 X119.372 Y118.438 E490.8673 F1400
G1 X117.794 Y133.987 E491.3871 F1400
; layer 92 z=18.40 r_out=25.12 twist=436.8
G0 X115.737 Y134.458 Z18.400 F4000
G1 X106.369 Y122.025 E491.9049 F1400
G1 X91.687 Y127.197 E492.4227 F1400
G1 X97.771 Y112.868 E492.9404 F1400
G1 X85.950 Y102.739 E493.4582 F1400
G1 X101.401 Y100.843 E493.9759 F1400
G1 X104.263 Y85.542 E494.4937 F1400
G1 X113.631 Y97.975 E495.0115 F1400
G1 X128.313 Y92.803 E495.5292 F1400
G1 X122.229 Y107.132 E496.0470 F1400
G1 X134.050 Y117.261 E496.5647 F1400
G1 X118.599 Y119.157 E497.0825 F1400
G1 X115.737 Y134.458 E497.6003 F1400
; layer 93 z=18.60 r_out=25.02 twist=441.6
G0 X113.655 Y134.748 Z18.600 F4000
G1 X105.395 Y121.630 E498.1159 F1400
G1 X90.394 Y125.539 E498.6314 F1400
G1 X97.626 Y111.827 E499.1470 F1400
G1 X86.740 Y100.791 E499.6626 F1400
G1 X102.230 Y100.197 E500.1782 F1400
G1 X106.345 Y85.252 E500.6938 F1400
G1 X114.605 Y98.370 E501.2094 F1400
G1 X129.606 Y94.461 E501.7250 F1400
G1 X122.374 Y108.173 E502.2406 F1400
G1 X133.260 Y119.209 E502.7562 F1400
G1 X117.770 Y119.803 E503.2718 F1400
G1 X113.655 Y134.748 E503.7874 F1400
; layer 94 z=18.80 r_out=24.91 twist=446.4
G0 X111.564 Y134.857 Z18.800 F4000
G1 X104.463 Y121.154 E504.3007 F1400
G1 X89.255 Y123.783 E504.8140 F1400
G1 X97.572 Y110.782 E505.3273 F1400
G1 X87.691 Y98.926 E505.8406 F1400
G1 X103.109 Y99.628 E506.3539 F1400
G1 X108.436 Y85.143 E506.8673 F1400
G1 X115.537 Y98.846 E507.3806 F1400
G1 X130.745 Y96.217 E507.8939 F1400
G1 X122.428 Y109.218 E508.4072 F1400
G1 X132.309 Y121.074 E508.9205 F1400
G1 X116.891 Y120.372 E509.4338 F1400
G1 X111.564 Y134.857 E509.9471 F1400
; layer 95 z=19.00 r_out=24.79 twist=451.2
G0 X109.481 Y134.784 Z19.000 F4000
G1 X103.579 Y120.602 E510.4580 F1400
G1 X88.277 Y121.942 E510.9689 F1400
G1 X97.608 Y109.740 E511.4799 F1400
G1 X88.796 Y97.158 E511.9908 F1400
G1 X104.029 Y99.138 E512.5017 F1400
G1 X110.519 Y85.216 E513.0126 F1400
G1 X116.421 Y99.398 E513.5235 F1400
G1 X131.723 Y98.058 E514.0344 F1400
G1 X122.392 Y110.260 E514.5453 F1400
G1 X131.204 Y122.842 E515.0562 F1400
G1 X115.971 Y120.862 E515.5672 F1400
G1 X109.481 Y134.784 E516.0781 F1400
; layer 96 z=19.20 r_out=24.67 twist=456.0
G0 X107.422 Y134.532 Z19.200 F4000
G1 X102.750 Y119.978 E516.5865 F1400
G1 X87.465 Y120.033 E517.0949 F1400
G1 X97.734 Y108.711 E517.6032 F1400
G1 X90.044 Y95.501 E518.1116 F1400
G1 X104.983 Y98.733 E518.6200 F1400
G1 X112.578 Y85.468 E519.1284 F1400
G1 X117.250 Y100.022 E519.6368 F1400
G1 X132.535 Y99.967 E520.1452 F1400
G1 X122.266 Y111.289 E520.6536 F1400
G1 X129.956 Y124.499 E521.1620 F1400
G1 X115.017 Y121.267 E521.6704 F1400
G1 X107.422 Y134.532 E522.1788 F1400
; layer 97 z=19.40 r_out=24.54 twist=460.8
G0 X105.402 Y134.105 Z19.400 F4000
G1 X101.983 Y119.288 E522.6846 F1400
G1 X86.825 Y118.070 E523.1903 F1400
G1 X97.947 Y107.701 E523.6961 F1400
G1 X91.423 Y93.965 E524.2019 F1400
G1 X105.965 Y98.413 E524.7076 F1400
G1 X114.598 Y85.895 E525.2134 F1400
G1 X118.017 Y100.712 E525.7192 F1400
G1 X133.175 Y101.930 E526.2249 F1400
G1 X122.053 Y112.299 E526.7307 F1400
G1 X128.577 Y126.035 E527.2365 F1400
G1 X114.035 Y121.587 E527.7422 F1400
G1 X105.402 Y134.105 E528.2480 F1400
; layer 98 z=19.60 r_out=24.41 twist=465.6
G0 X103.437 Y133.508 Z19.600 F4000
G1 X101.281 Y118.538 E528.7510 F1400
G1 X86.360 Y116.070 E529.2540 F1400
G1 X98.246 Y106.718 E529.7571 F1400
G1 X92.923 Y92.562 E530.2601 F1400
G1 X106.965 Y98.180 E530.7631 F1400
G1 X116.563 Y86.492 E531.2661 F1400
G1 X118.719 Y101.462 E531.7691 F1400
G1 X133.640 Y103.930 E532.2722 F1400
G1 X121.754 Y113.282 E532.7752 F1400
G1 X127.077 Y127.438 E533.2782 F1400
G1 X113.035 Y121.820 E533.7812 F1400
G1 X103.437 Y133.508 E534.2843 F1400
; layer 99 z=19.80 r_out=24.27 twist=470.4
G0 X101.541 Y132.746 Z19.800 F4000
G1 X100.650 Y117.735 E534.7844 F1400
G1 X86.072 Y114.047 E535.2846 F1400
G1 X98.627 Y105.770 E535.7848 F1400
G1 X94.531 Y91.301 E536.2849 F1400
G1 X107.976 Y98.036 E536.7851 F1400
G1 X118.459 Y87.254 E537.2853 F1400
G1 X119.350 Y102.265 E537.7854 F1400
G1 X133.928 Y105.953 E538.2856 F1400
G1 X121.373 Y114.230 E538.7858 F1400
G1 X125.469 Y128.699 E539.2859 F1400
G1 X112.024 Y121.964 E539.7861 F1400
G1 X101.541 Y132.746 E540.2863 F1400
; layer 100 z=20.00 r_out=24.12 twist=475.2
G0 X99.728 Y131.828 Z20.000 F4000
G1 X100.095 Y116.884 E540.7835 F1400
G1 X85.960 Y112.019 E541.2807 F1400
G1 X99.086 Y104.864 E541.7779 F1400
G1 X96.232 Y90.190 E542.2751 F1400
G1 X108.991 Y97.980 E542.7723 F1400
G1 X120.272 Y88.172 E543.2695 F1400
G1 X119.905 Y103.116 E543.7667 F1400
G1 X134.040 Y107.981 E544.2639 F1400
G1 X120.914 Y115.136 E544.7611 F1400
G1 X123.768 Y129.810 E545.2583 F1400
G1 X111.009 Y122.020 E545.7555 F1400
G1 X99.728 Y131.828 E546.2527 F1400
; layer 101 z=20.20 r_out=23.98 twist=480.0
G0 X98.012 Y130.763 Z20.200 F4000
G1 X99.618 Y115.994 E546.7468 F1400
G1 X86.025 Y110.000 E547.2409 F1400
G1 X99.618 Y104.006 E547.7350 F1400
G1 X98.012 Y89.237 E548.2291 F1400
G1 X110.000 Y98.012 E548.7233 F1400
G1 X121.988 Y89.237 E549.2174 F1400
G1 X120.382 Y104.006 E549.7115 F1400
G1 X133.975 Y110.000 E550.2056 F1400
G1 X120.382 Y115.994 E550.6998 F1400
G1 X121.988 Y130.763 E551.1939 F1400
G1 X110.000 Y121.988 E551.6880 F1400
G1 X98.012 Y130.763 E552.1821 F1400
; layer 102 z=20.40 r_out=23.82 twist=484.8
G0 X96.405 Y129.560 Z20.400 F4000
G1 X99.223 Y115.071 E552.6731 F1400
G1 X86.263 Y108.007 E553.1640 F1400
G1 X100.220 Y103.203 E553.6550 F1400
G1 X99.858 Y88.446 E554.1459 F1400
G1 X110.997 Y98.131 E554.6368 F1400
G1 X123.595 Y90.440 E555.1278 F1400
G1 X120.777 Y104.929 E555.6187 F1400
G1 X133.737 Y111.993 E556.1097 F1400
G1 X119.780 Y116.797 E556.6006 F1400
G1 X120.142 Y131.554 E557.0915 F1400
G1 X109.003 Y121.869 E557.5825 F1400
G1 X96.405 Y129.560 E558.0734 F1400
; layer 103 z=20.60 r_out=23.66 twist=489.6
G0 X94.918 Y128.231 Z20.600 F4000
G1 X98.912 Y114.124 E558.5611 F1400
G1 X86.670 Y106.054 E559.0487 F1400
G1 X100.884 Y102.459 E559.5364 F1400
G1 X101.752 Y87.823 E560.0240 F1400
G1 X111.973 Y98.335 E560.5116 F1400
G1 X125.082 Y91.769 E560.9993 F1400
G1 X121.088 Y105.876 E561.4869 F1400
G1 X133.330 Y113.946 E561.9746 F1400
G1 X119.116 Y117.541 E562.4622 F1400
G1 X118.248 Y132.177 E562.9499 F1400
G1 X108.027 Y121.665 E563.4375 F1400
G1 X94.918 Y128.231 E563.9252 F1400
; layer 104 z=20.80 r_out=23.50 twist=494.4
G0 X93.561 Y126.787 Z20.800 F4000
G1 X98.685 Y113.159 E564.4094 F1400
G1 X87.242 Y104.157 E564.8937 F1400
G1 X101.606 Y101.780 E565.3779 F1400
G1 X103.681 Y87.369 E565.8622 F1400
G1 X112.922 Y98.621 E566.3464 F1400
G1 X126.439 Y93.213 E566.8307 F1400
G1 X121.315 Y106.841 E567.3149 F1400
G1 X132.758 Y115.843 E567.7992 F1400
G1 X118.394 Y118.220 E568.2834 F1400
G1 X116.319 Y132.631 E568.7677 F1400
G1 X107.078 Y121.379 E569.2519 F1400
G1 X93.561 Y126.787 E569.7362 F1400
; layer 105 z=21.00 r_out=23.33 twist=499.2
G0 X92.342 Y125.242 Z21.000 F4000
G1 X98.543 Y112.185 E570.2170 F1400
G1 X87.971 Y102.329 E570.6977 F1400
G1 X102.379 Y101.171 E571.1785 F1400
G1 X105.629 Y87.087 E571.6592 F1400
G1 X113.836 Y98.986 E572.1400 F1400
G1 X127.658 Y94.758 E572.6207 F1400
G1 X121.457 Y107.815 E573.1015 F1400
G1 X132.029 Y117.671 E573.5822 F1400
G1 X117.621 Y118.829 E574.0630 F1400
G1 X114.371 Y132.913 E574.5437 F1400
G1 X106.164 Y121.014 E575.0245 F1400
G1 X92.342 Y125.242 E575.5052 F1400
; layer 106 z=21.20 r_out=23.15 twist=504.0
G0 X91.270 Y123.608 Z21.200 F4000
G1 X98.488 Y111.210 E575.9824 F1400
G1 X88.850 Y100.583 E576.4595 F1400
G1 X103.196 Y100.635 E576.9367 F1400
G1 X107.580 Y86.975 E577.4138 F1400
G1 X114.708 Y99.425 E577.8909 F1400
G1 X128.730 Y96.392 E578.3681 F1400
G1 X121.512 Y108.790 E578.8452 F1400
G1 X131.150 Y119.417 E579.3224 F1400
G1 X116.804 Y119.365 E579.7995 F1400
G1 X112.420 Y133.025 E580.2767 F1400
G1 X105.292 Y120.575 E580.7538 F1400
G1 X91.270 Y123.608 E581.2310 F1400
; layer 107 z=21.40 r_out=22.97 twist=508.8
G0 X90.351 Y121.900 Z21.400 F4000
G1 X98.517 Y110.241 E581.7044 F1400
G1 X89.870 Y98.933 E582.1779 F1400
G1 X104.050 Y100.175 E582.6513 F1400
G1 X109.519 Y87.033 E583.1248 F1400
G1 X115.533 Y99.935 E583.5982 F1400
G1 X129.649 Y98.100 E584.0716 F1400
G1 X121.483 Y109.759 E584.5451 F1400
G1 X130.130 Y121.067 E585.0185 F1400
G1 X115.950 Y119.825 E585.4920 F1400
G1 X110.481 Y132.967 E585.9654 F1400
G1 X104.467 Y120.065 E586.4389 F1400
G1 X90.351 Y121.900 E586.9123 F1400
; layer 108 z=21.60 r_out=22.79 twist=513.6
G0 X89.589 Y120.132 Z21.600 F4000
G1 X98.629 Y109.285 E587.3820 F1400
G1 X91.020 Y97.390 E587.8516 F1400
G1 X104.934 Y99.795 E588.3212 F1400
G1 X111.431 Y87.258 E588.7909 F1400
G1 X116.305 Y100.510 E589.2605 F1400
G1 X130.411 Y99.868 E589.7302 F1400
G1 X121.371 Y110.715 E590.1998 F1400
G1 X128.980 Y122.610 E590.6694 F1400
G1 X115.066 Y120.205 E591.1391 F1400
G1 X108.569 Y132.742 E591.6087 F1400
G1 X103.695 Y119.490 E592.0784 F1400
G1 X89.589 Y120.132 E592.5480 F1400
; layer 109 z=21.80 r_out=22.60 twist=518.4
G0 X88.989 Y118.319 Z21.800 F4000
G1 X98.822 Y108.349 E593.0137 F1400
G1 X92.290 Y95.963 E593.4795 F1400
G1 X105.841 Y99.494 E593.9452 F1400
G1 X113.301 Y87.644 E594.4110 F1400
G1 X117.018 Y101.145 E594.8767 F1400
G1 X131.011 Y101.681 E595.3424 F1400
G1 X121.178 Y111.651 E595.8082 F1400
G1 X127.710 Y124.037 E596.2739 F1400
G1 X114.159 Y120.506 E596.7397 F1400
G1 X106.699 Y132.356 E597.2054 F1400
G1 X102.982 Y118.855 E597.6711 F1400
G1 X88.989 Y118.319 E598.1369 F1400
; layer 110 z=22.00 r_out=22.40 twist=523.2
G0 X88.552 Y116.475 Z22.000 F4000
G1 X99.094 Y107.442 E598.5986 F1400
G1 X93.668 Y94.663 E599.0604 F1400
G1 X106.762 Y99.276 E599.5221 F1400
G1 X115.116 Y88.188 E599.9839 F1400
G1 X117.668 Y101.834 E600.4456 F1400
G1 X131.448 Y103.525 E600.9074 F1400
G1 X120.906 Y112.558 E601.3691 F1400
G1 X126.332 Y125.337 E601.8308 F1400
G1 X113.238 Y120.724 E602.2926 F1400
G1 X104.884 Y131.812 E602.7543 F1400
G1 X102.332 Y118.166 E603.2161 F1400
G1 X88.552 Y116.475 E603.6778 F1400
; layer 111 z=22.20 r_out=22.21 twist=528.0
G0 X88.280 Y114.617 Z22.200 F4000
G1 X99.441 Y106.569 E604.1355 F1400
G1 X95.142 Y93.498 E604.5931 F1400
G1 X107.692 Y99.140 E605.0508 F1400
G1 X116.862 Y88.881 E605.5084 F1400
G1 X118.251 Y102.571 E605.9661 F1400
G1 X131.720 Y105.383 E606.4237 F1400
G1 X120.559 Y113.431 E606.8814 F1400
G1 X124.858 Y126.502 E607.3390 F1400
G1 X112.308 Y120.860 E607.7967 F1400
G1 X103.138 Y131.119 E608.2544 F1400
G1 X101.749 Y117.429 E608.7120 F1400
G1 X88.280 Y114.617 E609.1697 F1400
; layer 112 z=22.40 r_out=22.00 twist=532.8
G0 X88.171 Y112.758 Z22.400 F4000
G1 X99.858 Y105.737 E609.6231 F1400
G1 X96.697 Y92.474 E610.0766 F1400
G1 X108.621 Y99.085 E610.5301 F1400
G1 X118.526 Y89.717 E610.9835 F1400
G1 X118.763 Y103.349 E611.4370 F1400
G1 X131.829 Y107.242 E611.8905 F1400
G1 X120.142 Y114.263 E612.3440 F1400
G1 X123.303 Y127.526 E612.7974 F1400
G1 X111.379 Y120.915 E613.2509 F1400
G1 X101.474 Y130.283 E613.7044 F1400
G1 X101.237 Y116.651 E614.1578 F1400
G1 X88.171 Y112.758 E614.6113 F1400
; layer 113 z=22.60 r_out=21.80 twist=537.6
G0 X88.224 Y110.913 Z22.600 F4000
G1 X100.342 Y104.951 E615.0605 F1400
G1 X98.322 Y91.598 E615.5097 F1400
G1 X109.544 Y99.112 E615.9589 F1400
G1 X120.098 Y90.685 E616.4081 F1400
G1 X119.201 Y104.161 E616.8573 F1400
G1 X131.776 Y109.087 E617.3065 F1400
G1 X119.658 Y115.049 E617.7557 F1400
G1 X121.678 Y128.402 E618.2049 F1400
G1 X110.456 Y120.888 E618.6541 F1400
G1 X99.902 Y129.315 E619.1033 F1400
G1 X100.799 Y115.839 E619.5525 F1400
G1 X88.224 Y110.913 E620.0017 F1400
; layer 114 z=22.80 r_out=21.58 twist=542.4
G0 X88.435 Y109.096 Z22.800 F4000
G1 X100.888 Y104.217 E620.4465 F1400
G1 X100.000 Y90.872 E620.8914 F1400
G1 X110.452 Y99.218 E621.3362 F1400
G1 X121.565 Y91.776 E621.7810 F1400
G1 X119.564 Y105.000 E622.2259 F1400
G1 X131.565 Y110.904 E622.6707 F1400
G1 X119.112 Y115.783 E623.1155 F1400
G1 X120.000 Y129.128 E623.5604 F1400
G1 X109.548 Y120.782 E624.0052 F1400
G1 X98.435 Y128.224 E624.4501 F1400
G1 X100.436 Y115.000 E624.8949 F1400
G1 X88.435 Y109.096 E625.3397 F1400
; layer 115 z=23.00 r_out=21.37 twist=547.2
G0 X88.801 Y107.322 Z23.000 F4000
G1 X101.490 Y103.541 E625.7801 F1400
G1 X101.720 Y90.302 E626.2205 F1400
G1 X111.339 Y99.400 E626.6609 F1400
G1 X122.919 Y92.980 E627.1013 F1400
G1 X119.849 Y105.860 E627.5417 F1400
G1 X131.199 Y112.678 E627.9821 F1400
G1 X118.510 Y116.459 E628.4224 F1400
G1 X118.280 Y129.698 E628.8628 F1400
G1 X108.661 Y120.600 E629.3032 F1400
G1 X97.081 Y127.020 E629.7436 F1400
G1 X100.151 Y114.140 E630.1840 F1400
G1 X88.801 Y107.322 E630.6244 F1400
; layer 116 z=23.20 r_out=21.15 twist=552.0
G0 X89.314 Y105.603 Z23.200 F4000
G1 X102.142 Y102.925 E631.0602 F1400
G1 X103.465 Y89.887 E631.4961 F1400
G1 X112.198 Y99.657 E631.9320 F1400
G1 X124.151 Y94.284 E632.3678 F1400
G1 X120.056 Y106.732 E632.8037 F1400
G1 X130.686 Y114.397 E633.2395 F1400
G1 X117.858 Y117.075 E633.6754 F1400
G1 X116.535 Y130.113 E634.1112 F1400
G1 X107.802 Y120.343 E634.5471 F1400
G1 X95.849 Y125.716 E634.9829 F1400
G1 X99.944 Y113.268 E635.4188 F1400
G1 X89.314 Y105.603 E635.8546 F1400
; layer 117 z=23.40 r_out=20.92 twist=556.8
G0 X89.969 Y103.952 Z23.400 F4000
G1 X102.838 Y102.374 E636.2859 F1400
G1 X105.222 Y89.629 E636.7171 F1400
G1 X113.024 Y99.985 E637.1484 F1400
G1 X125.253 Y95.677 E637.5796 F1400
G1 X120.186 Y107.611 E638.0108 F1400
G1 X130.031 Y116.048 E638.4421 F1400
G1 X117.162 Y117.626 E638.8733 F1400
G1 X114.778 Y130.371 E639.3046 F1400
G1 X106.976 Y120.015 E639.7358 F1400
G1 X94.747 Y124.323 E640.1670 F1400
G1 X99.814 Y112.389 E640.5983 F1400
G1 X89.969 Y103.952 E641.0295 F1400
; layer 118 z=23.60 r_out=20.70 twist=561.6
G0 X90.757 Y102.381 Z23.600 F4000
G1 X103.572 Y101.890 E641.4561 F1400
G1 X106.977 Y89.526 E641.8826 F1400
G1 X113.809 Y100.379 E642.3092 F1400
G1 X126.219 Y97.145 E642.7357 F1400
G1 X120.237 Y108.488 E643.1622 F1400
G1 X129.243 Y117.619 E643.5888 F1400
G1 X116.428 Y118.110 E644.0153 F1400
G1 X113.023 Y130.474 E644.4419 F1400
G1 X106.191 Y119.621 E644.8684 F1400
G1 X93.781 Y122.855 E645.2950 F1400
G1 X99.763 Y111.512 E645.7215 F1400
G1 X90.757 Y102.381 E646.1480 F1400
; layer 119 z=23.80 r_out=20.46 twist=566.4
G0 X91.670 Y100.901 Z23.800 F4000
G1 X104.338 Y101.477 E646.5698 F1400
G1 X108.715 Y89.576 E646.9916 F1400
G1 X114.550 Y100.835 E647.4133 F1400
G1 X127.045 Y98.675 E647.8351 F1400
G1 X120.212 Y109.358 E648.2569 F1400
G1 X128.330 Y119.099 E648.6787 F1400
G1 X115.662 Y118.523 E649.1004 F1400
G1 X111.285 Y130.424 E649.5222 F1400
G1 X105.450 Y119.165 E649.9440 F1400
G1 X92.955 Y121.325 E650.3657 F1400
G1 X99.788 Y110.642 E650.7875 F1400
G1 X91.670 Y100.901 E651.2093 F1400
; layer 120 z=24.00 r_out=20.23 twist=571.2
G0 X92.697 Y99.521 Z24.000 F4000
G1 X105.127 Y101.137 E651.6262 F1400
G1 X110.424 Y89.775 E652.0431 F1400
G1 X115.240 Y101.348 E652.4600 F1400
G1 X127.727 Y100.255 E652.8769 F1400
G1 X120.112 Y110.212 E653.2938 F1400
G1 X127.303 Y120.479 E653.7108 F1400
G1 X114.873 Y118.863 E654.1277 F1400
G1 X109.576 Y130.225 E654.5446 F1400
G1 X104.760 Y118.652 E654.9615 F1400
G1 X92.273 Y119.745 E655.3784 F1400
G1 X99.888 Y109.788 E655.7953 F1400
G1 X92.697 Y99.521 E656.2123 F1400
; layer 121 z=24.20 r_out=19.99 twist=576.0
G0 X93.828 Y98.250 Z24.200 F4000
G1 X105.935 Y100.869 E656.6243 F1400
G1 X112.090 Y90.120 E657.0362 F1400
G1 X115.875 Y101.914 E657.4482 F1400
G1 X128.262 Y101.869 E657.8602 F1400
G1 X119.940 Y111.045 E658.2722 F1400
G1 X126.172 Y121.750 E658.6842 F1400
G1 X114.065 Y119.131 E659.0962 F1400
G1 X107.910 Y129.880 E659.5082 F1400
G1 X104.125 Y118.086 E659.9202 F1400
G1 X91.738 Y118.131 E660.3322 F1400
G1 X100.060 Y108.955 E660.7442 F1400
G1 X93.828 Y98.250 E661.1562 F1400
; layer 122 z=24.40 r_out=19.75 twist=580.8
G0 X95.051 Y97.097 Z24.400 F4000
G1 X106.753 Y100.675 E661.5632 F1400
G1 X113.700 Y90.602 E661.9701 F1400
G1 X116.452 Y102.526 E662.3771 F1400
G1 X128.649 Y103.506 E662.7841 F1400
G1 X119.699 Y111.850 E663.1911 F1400
G1 X124.949 Y122.903 E663.5981 F1400
G1 X113.247 Y119.325 E664.0051 F1400
G1 X106.300 Y129.398 E664.4121 F1400
G1 X103.548 Y117.474 E664.8191 F1400
G1 X91.351 Y116.494 E665.2261 F1400
G1 X100.301 Y108.150 E665.6331 F1400
G1 X95.051 Y97.097 E666.0401 F1400
; layer 123 z=24.60 r_out=19.50 twist=585.6
G0 X96.355 Y96.067 Z24.600 F4000
G1 X107.575 Y100.556 E666.4420 F1400
G1 X115.244 Y91.217 E666.8439 F1400
G1 X116.967 Y103.178 E667.2458 F1400
G1 X128.889 Y105.150 E667.6478 F1400
G1 X119.392 Y112.622 E668.0497 F1400
G1 X123.645 Y123.933 E668.4516 F1400
G1 X112.425 Y119.444 E668.8535 F1400
G1 X104.756 Y128.783 E669.2555 F1400
G1 X103.033 Y116.822 E669.6574 F1400
G1 X91.111 Y114.850 E670.0593 F1400
G1 X100.608 Y107.378 E670.4612 F1400
G1 X96.355 Y96.067 E670.8632 F1400
; layer 124 z=24.80 r_out=19.25 twist=590.4
G0 X97.728 Y95.166 Z24.800 F4000
G1 X108.395 Y100.509 E671.2600 F1400
G1 X116.711 Y91.955 E671.6568 F1400
G1 X117.417 Y103.864 E672.0535 F1400
G1 X128.983 Y106.789 E672.4503 F1400
G1 X119.022 Y113.355 E672.8471 F1400
G1 X122.272 Y124.834 E673.2439 F1400
G1 X111.605 Y119.491 E673.6407 F1400
G1 X103.289 Y128.045 E674.0375 F1400
G1 X102.583 Y116.136 E674.4343 F1400
G1 X91.017 Y113.211 E674.8311 F1400
G1 X100.978 Y106.645 E675.2279 F1400
G1 X97.728 Y95.166 E675.6246 F1400
; layer 125 z=25.00 r_out=19.00 twist=595.2
G0 X99.156 Y94.398 Z25.000 F4000
G1 X109.205 Y100.533 E676.0162 F1400
G1 X118.090 Y92.808 E676.4078 F1400
G1 X117.801 Y104.578 E676.7994 F1400
G1 X128.933 Y108.410 E677.1910 F1400
G1 X118.596 Y114.045 E677.5826 F1400
G1 X120.844 Y125.602 E677.9742 F1400
G1 X110.795 Y119.467 E678.3658 F1400
G1 X101.910 Y127.192 E678.7573 F1400
G1 X102.199 Y115.422 E679.1489 F1400
G1 X91.067 Y111.590 E679.5405 F1400
G1 X101.404 Y105.955 E679.9321 F1400
G1 X99.156 Y94.398 E680.3237 F1400
; layer 126 z=25.20 r_out=18.74 twist=600.0
G0 X100.628 Y93.767 Z25.200 F4000
G1 X110.000 Y100.628 E680.7100 F1400
G1 X119.372 Y93.767 E681.0963 F1400
G1 X118.117 Y105.314 E681.4827 F1400
G1 X128.745 Y110.000 E681.8690 F1400
G1 X118.117 Y114.686 E682.2553 F1400
G1 X119.372 Y126.233 E682.6416 F1400
G1 X110.000 Y119.372 E683.0280 F1400
G1 X100.628 Y126.233 E683.4143 F1400
G1 X101.883 Y114.686 E683.8006 F1400
G1 X91.255 Y110.000 E684.1869 F1400
G1 X101.883 Y105.314 E684.5732 F1400
G1 X100.628 Y93.767 E684.9596 F1400
; layer 127 z=25.40 r_out=18.49 twist=604.8
G0 X102.129 Y93.273 Z25.400 F4000
G1 X110.773 Y100.789 E685.3406 F1400
G1 X120.550 Y94.820 E685.7216 F1400
G1 X118.363 Y106.064 E686.1026 F1400
G1 X128.421 Y111.547 E686.4836 F1400
G1 X117.590 Y115.275 E686.8646 F1400
G1 X117.871 Y126.727 E687.2455 F1400
G1 X109.227 Y119.211 E687.6265 F1400
G1 X99.450 Y125.180 E688.0075 F1400
G1 X101.637 Y113.936 E688.3885 F1400
G1 X91.579 Y108.453 E688.7695 F1400
G1 X102.410 Y104.725 E689.1505 F1400
G1 X102.129 Y93.273 E689.5315 F1400
; layer 128 z=25.60 r_out=18.22 twist=609.6
G0 X103.647 Y92.918 Z25.600 F4000
G1 X111.520 Y101.015 E689.9071 F1400
G1 X121.617 Y95.957 E690.2828 F1400
G1 X118.541 Y106.824 E690.6584 F1400
G1 X127.970 Y113.039 E691.0340 F1400
G1 X117.021 Y115.808 E691.4096 F1400
G1 X116.353 Y127.082 E691.7852 F1400
G1 X108.480 Y118.985 E692.1608 F1400
G1 X98.383 Y124.043 E692.5364 F1400
G1 X101.459 Y113.176 E692.9120 F1400
G1 X92.030 Y106.961 E693.2877 F1400
G1 X102.979 Y104.192 E693.6633 F1400
G1 X103.647 Y92.918 E694.0389 F1400
; layer 129 z=25.80 r_out=17.96 twist=614.4
G0 X105.170 Y92.701 Z25.800 F4000
G1 X112.233 Y101.302 E694.4091 F1400
G1 X122.567 Y97.167 E694.7792 F1400
G1 X118.650 Y107.585 E695.1494 F1400
G1 X127.397 Y114.467 E695.5196 F1400
G1 X116.416 Y116.283 E695.8897 F1400
G1 X114.830 Y127.299 E696.2599 F1400
G1 X107.767 Y118.698 E696.6301 F1400
G1 X97.433 Y122.833 E697.0003 F1400
G1 X101.350 Y112.415 E697.3704 F1400
G1 X92.603 Y105.533 E697.7406 F1400
G1 X103.584 Y103.717 E698.1108 F1400
G1 X105.170 Y92.701 E698.4809 F1400
; layer 130 z=26.00 r_out=17.69 twist=619.2
G0 X106.684 Y92.619 Z26.000 F4000
G1 X112.910 Y101.645 E698.8456 F1400
G1 X123.395 Y98.438 E699.2103 F1400
G1 X118.690 Y108.342 E699.5750 F1400
G1 X126.710 Y115.819 E699.9397 F1400
G1 X115.781 Y116.697 E700.3043 F1400
G1 X113.316 Y127.381 E700.6690 F1400
G1 X107.090 Y118.355 E701.0337 F1400
G1 X96.605 Y121.562 E701.3984 F1400
G1 X101.310 Y111.658 E701.7630 F1400
G1 X93.290 Y104.181 E702.1277 F1400
G1 X104.219 Y103.303 E702.4924 F1400
G1 X106.684 Y92.619 E702.8571 F1400
; layer 131 z=26.20 r_out=17.43 twist=624.0
G0 X108.179 Y92.670 Z26.200 F4000
G1 X113.544 Y102.041 E703.2162 F1400
G1 X124.097 Y99.758 E703.5753 F1400
G1 X118.665 Y109.089 E703.9345 F1400
G1 X125.919 Y117.087 E704.2936 F1400
G1 X115.121 Y117.049 E704.6527 F1400
G1 X111.821 Y127.330 E705.0119 F1400
G1 X106.456 Y117.959 E705.3710 F1400
G1 X95.903 Y120.242 E705.7301 F1400
G1 X101.335 Y110.911 E706.0893 F1400
G1 X94.081 Y102.913 E706.4484 F1400
G1 X104.879 Y102.951 E706.8075 F1400
G1 X108.179 Y92.670 E707.1667 F1400
; layer 132 z=26.40 r_out=17.15 twist=628.8
G0 X109.641 Y92.850 Z26.400 F4000
G1 X114.132 Y102.484 E707.5202 F1400
G1 X124.673 Y101.114 E707.8737 F1400
G1 X118.575 Y109.820 E708.2273 F1400
G1 X125.032 Y118.264 E708.5808 F1400
G1 X114.443 Y117.336 E708.9343 F1400
G1 X110.359 Y127.150 E709.2879 F1400
G1 X105.868 Y117.516 E709.6414 F1400
G1 X95.327 Y118.886 E709.9949 F1400
G1 X101.425 Y110.180 E710.3485 F1400
G1 X94.968 Y101.736 E710.7020 F1400
G1 X105.557 Y102.664 E711.0556 F1400
G1 X109.641 Y92.850 E711.4091 F1400
; layer 133 z=26.60 r_out=16.88 twist=633.6
G0 X111.060 Y93.153 Z26.600 F4000
G1 X114.671 Y102.970 E711.7570 F1400
G1 X125.120 Y102.495 E712.1049 F1400
G1 X118.423 Y110.530 E712.4528 F1400
G1 X124.060 Y119.341 E712.8007 F1400
G1 X113.753 Y117.560 E713.1486 F1400
G1 X108.940 Y126.847 E713.4965 F1400
G1 X105.329 Y117.030 E713.8444 F1400
G1 X94.880 Y117.505 E714.1923 F1400
G1 X101.577 Y109.470 E714.5401 F1400
G1 X95.940 Y100.659 E714.8880 F1400
G1 X106.247 Y102.440 E715.2359 F1400
G1 X111.060 Y93.153 E715.5838 F1400
; layer 134 z=26.80 r_out=16.60 twist=638.4
G0 X112.426 Y93.574 Z26.800 F4000
G1 X115.157 Y103.494 E715.9260 F1400
G1 X125.438 Y103.888 E716.2682 F1400
G1 X118.213 Y111.213 E716.6105 F1400
G1 X123.013 Y120.314 E716.9527 F1400
G1 X113.056 Y117.719 E717.2949 F1400
G1 X107.574 Y126.426 E717.6371 F1400
G1 X104.843 Y116.506 E717.9793 F1400
G1 X94.562 Y116.112 E718.3215 F1400
G1 X101.787 Y108.787 E718.6637 F1400
G1 X96.987 Y99.686 E719.0059 F1400
G1 X106.944 Y102.281 E719.3481 F1400
G1 X112.426 Y93.574 E719.6903 F1400
; layer 135 z=27.00 r_out=16.33 twist=643.2
G0 X113.728 Y94.105 Z27.000 F4000
G1 X115.588 Y104.049 E720.0268 F1400
G1 X125.629 Y105.281 E720.3633 F1400
G1 X117.947 Y111.864 E720.6998 F1400
G1 X121.901 Y121.176 E721.0363 F1400
G1 X112.359 Y117.815 E721.3727 F1400
G1 X106.272 Y125.895 E721.7092 F1400
G1 X104.412 Y115.951 E722.0457 F1400
G1 X94.371 Y114.719 E722.3822 F1400
G1 X102.053 Y108.136 E722.7187 F1400
G1 X98.099 Y98.824 E723.0552 F1400
G1 X107.641 Y102.185 E723.3916 F1400
G1 X113.728 Y94.105 E723.7281 F1400
; layer 136 z=27.20 r_out=16.05 twist=648.0
G0 X114.959 Y94.739 Z27.200 F4000
G1 X115.962 Y104.631 E724.0588 F1400
G1 X125.696 Y106.664 E724.3895 F1400
G1 X117.631 Y112.479 E724.7203 F1400
G1 X120.737 Y121.925 E725.0510 F1400
G1 X111.668 Y117.848 E725.3817 F1400
G1 X105.041 Y125.261 E725.7124 F1400
G1 X104.038 Y115.369 E726.0431 F1400
G1 X94.304 Y113.336 E726.3738 F1400
G1 X102.369 Y107.521 E726.7046 F1400
G1 X99.263 Y98.075 E727.0353 F1400
G1 X108.332 Y102.152 E727.3660 F1400
G1 X114.959 Y94.739 E727.6967 F1400
; layer 137 z=27.40 r_out=15.76 twist=652.8
G0 X116.109 Y95.467 Z27.400 F4000
G1 X116.279 Y105.234 E728.0216 F1400
G1 X125.641 Y108.024 E728.3465 F1400
G1 X117.267 Y113.055 E728.6714 F1400
G1 X119.531 Y122.557 E728.9963 F1400
G1 X110.988 Y117.820 E729.3213 F1400
G1 X103.891 Y124.533 E729.6462 F1400
G1 X103.721 Y114.766 E729.9711 F1400
G1 X94.359 Y111.976 E730.2960 F1400
G1 X102.733 Y106.945 E730.6209 F1400
G1 X100.469 Y97.443 E730.9458 F1400
G1 X109.012 Y102.180 E731.2707 F1400
G1 X116.109 Y95.467 E731.5956 F1400
; layer 138 z=27.60 r_out=15.48 twist=657.6
G0 X117.173 Y96.280 Z27.600 F4000
G1 X116.536 Y105.852 E731.9147 F1400
G1 X125.468 Y109.352 E732.2338 F1400
G1 X116.860 Y113.586 E732.5529 F1400
G1 X118.295 Y123.072 E732.8719 F1400
G1 X110.324 Y117.734 E733.1910 F1400
G1 X102.827 Y123.720 E733.5101 F1400
G1 X103.464 Y114.148 E733.8292 F1400
G1 X94.532 Y110.648 E734.1482 F1400
G1 X103.140 Y106.414 E734.4673 F1400
G1 X101.705 Y96.928 E734.7864 F1400
G1 X109.676 Y102.266 E735.1055 F1400
G1 X117.173 Y96.280 E735.4245 F1400
; layer 139 z=27.80 r_out=15.20 twist=662.4
G0 X118.143 Y97.169 Z27.800 F4000
G1 X116.734 Y106.480 E735.7377 F1400
G1 X125.184 Y110.636 E736.0510 F1400
G1 X116.416 Y114.071 E736.3642 F1400
G1 X117.041 Y123.468 E736.6774 F1400
G1 X109.682 Y117.592 E736.9906 F1400
G1 X101.857 Y122.831 E737.3038 F1400
G1 X103.266 Y113.520 E737.6170 F1400
G1 X94.816 Y109.364 E737.9302 F1400
G1 X103.584 Y105.929 E738.2434 F1400
G1 X102.959 Y96.532 E738.5566 F1400
G1 X110.318 Y102.408 E738.8698 F1400
G1 X118.143 Y97.169 E739.1830 F1400
; layer 140 z=28.00 r_out=14.91 twist=667.2
G0 X119.015 Y98.123 Z28.000 F4000
G1 X116.873 Y107.111 E739.4903 F1400
G1 X124.793 Y111.869 E739.7976 F1400
G1 X115.938 Y114.508 E740.1049 F1400
G1 X115.778 Y123.746 E740.4123 F1400
G1 X109.066 Y117.397 E740.7196 F1400
G1 X100.985 Y121.877 E741.0269 F1400
G1 X103.127 Y112.889 E741.3342 F1400
G1 X95.207 Y108.131 E741.6415 F1400
G1 X104.062 Y105.492 E741.9488 F1400
G1 X104.222 Y96.254 E742.2561 F1400
G1 X110.934 Y102.603 E742.5634 F1400
G1 X119.015 Y98.123 E742.8707 F1400
; layer 141 z=28.20 r_out=14.62 twist=672.0
G0 X119.785 Y99.133 Z28.200 F4000
G1 X116.954 Y107.741 E743.1721 F1400
G1 X124.304 Y113.040 E743.4735 F1400
G1 X115.434 Y114.892 E743.7749 F1400
G1 X114.519 Y123.908 E744.0763 F1400
G1 X108.480 Y117.152 E744.3777 F1400
G1 X100.215 Y120.867 E744.6790 F1400
G1 X103.046 Y112.259 E744.9804 F1400
G1 X95.696 Y106.960 E745.2818 F1400
G1 X104.566 Y105.108 E745.5832 F1400
G1 X105.481 Y96.092 E745.8846 F1400
G1 X111.520 Y102.848 E746.1860 F1400
G1 X119.785 Y99.133 E746.4873 F1400
; layer 142 z=28.40 r_out=14.33 twist=676.8
G0 X120.450 Y100.187 Z28.400 F4000
G1 X116.978 Y108.363 E746.7828 F1400
G1 X123.723 Y114.143 E747.0782 F1400
G1 X114.906 Y115.225 E747.3737 F1400
G1 X113.273 Y123.956 E747.6691 F1400
G1 X107.928 Y116.861 E747.9645 F1400
G1 X99.550 Y119.813 E748.2600 F1400
G1 X103.022 Y111.637 E748.5554 F1400
G1 X96.277 Y105.857 E748.8508 F1400
G1 X105.094 Y104.775 E749.1463 F1400
G1 X106.727 Y96.044 E749.4417 F1400
G1 X112.072 Y103.139 E749.7372 F1400
G1 X120.450 Y100.187 E750.0326 F1400
; layer 143 z=28.60 r_out=14.05 twist=681.6
G0 X121.007 Y101.276 Z28.600 F4000
G1 X116.947 Y108.974 E750.3221 F1400
G1 X123.059 Y115.170 E750.6115 F1400
G1 X114.362 Y115.504 E750.9010 F1400
G1 X112.052 Y123.894 E751.1905 F1400
G1 X107.415 Y116.529 E751.4799 F1400
G1 X98.993 Y118.724 E751.7694 F1400
G1 X103.053 Y111.026 E752.0589 F1400
G1 X96.941 Y104.830 E752.3484 F1400
G1 X105.638 Y104.496 E752.6378 F1400
G1 X107.948 Y96.106 E752.9273 F1400
G1 X112.585 Y103.471 E753.2168 F1400
G1 X121.007 Y101.276 E753.5062 F1400
; layer 144 z=28.80 r_out=13.75 twist=686.4
G0 X121.457 Y102.388 Z28.800 F4000
G1 X116.864 Y109.568 E753.7897 F1400
G1 X122.320 Y116.116 E754.0732 F1400
G1 X113.806 Y115.728 E754.3567 F1400
G1 X110.864 Y123.728 E754.6402 F1400
G1 X106.942 Y116.160 E754.9236 F1400
G1 X98.543 Y117.612 E755.2071 F1400
G1 X103.136 Y110.432 E755.4906 F1400
G1 X97.680 Y103.884 E755.7741 F1400
G1 X106.194 Y104.272 E756.0576 F1400
G1 X109.136 Y96.272 E756.3410 F1400
G1 X113.058 Y103.840 E756.6245 F1400
G1 X121.457 Y102.388 E756.9080 F1400
; layer 145 z=29.00 r_out=13.46 twist=691.2
G0 X121.798 Y103.514 Z29.000 F4000
G1 X116.730 Y110.141 E757.1855 F1400
G1 X121.516 Y116.974 E757.4630 F1400
G1 X113.243 Y115.899 E757.7404 F1400
G1 X109.718 Y123.460 E758.0179 F1400
G1 X106.513 Y115.758 E758.2954 F1400
G1 X98.202 Y116.486 E758.5729 F1400
G1 X103.270 Y109.859 E758.8504 F1400
G1 X98.484 Y103.026 E759.1278 F1400
G1 X106.757 Y104.101 E759.4053 F1400
G1 X110.282 Y96.540 E759.6828 F1400
G1 X113.487 Y104.242 E759.9603 F1400
G1 X121.798 Y103.514 E760.2378 F1400
; layer 146 z=29.20 r_out=13.17 twist=696.0
G0 X122.033 Y104.643 Z29.200 F4000
G1 X116.550 Y110.688 E760.5092 F1400
G1 X120.656 Y117.742 E760.7807 F1400
G1 X112.679 Y116.016 E761.0521 F1400
G1 X108.623 Y123.099 E761.3236 F1400
G1 X106.129 Y115.328 E761.5951 F1400
G1 X97.967 Y115.357 E761.8665 F1400
G1 X103.450 Y109.312 E762.1380 F1400
G1 X99.344 Y102.258 E762.4095 F1400
G1 X107.321 Y103.984 E762.6809 F1400
G1 X111.377 Y96.901 E762.9524 F1400
G1 X113.871 Y104.672 E763.2238 F1400
G1 X122.033 Y104.643 E763.4953 F1400
; layer 147 z=29.40 r_out=12.88 twist=700.8
G0 X122.163 Y105.765 Z29.400 F4000
G1 X116.325 Y111.207 E763.7607 F1400
G1 X119.749 Y118.415 E764.0262 F1400
G1 X112.118 Y116.081 E764.2916 F1400
G1 X107.587 Y122.651 E764.5571 F1400
G1 X105.792 Y114.875 E764.8225 F1400
G1 X97.837 Y114.235 E765.0879 F1400
G1 X103.675 Y108.793 E765.3534 F1400
G1 X100.251 Y101.585 E765.6188 F1400
G1 X107.882 Y103.919 E765.8842 F1400
G1 X112.413 Y97.349 E766.1497 F1400
G1 X114.208 Y105.125 E766.4151 F1400
G1 X122.163 Y105.765 E766.6805 F1400
; layer 148 z=29.60 r_out=12.59 twist=705.6
G0 X122.191 Y106.870 Z29.600 F4000
G1 X116.061 Y111.692 E766.9399 F1400
G1 X118.806 Y118.993 E767.1993 F1400
G1 X111.565 Y116.095 E767.4587 F1400
G1 X106.615 Y122.123 E767.7181 F1400
G1 X105.504 Y114.403 E767.9775 F1400
G1 X97.809 Y113.130 E768.2369 F1400
G1 X103.939 Y108.308 E768.4963 F1400
G1 X101.194 Y101.007 E768.7557 F1400
G1 X108.435 Y103.905 E769.0151 F1400
G1 X113.385 Y97.877 E769.2746 F1400
G1 X114.496 Y105.597 E769.5340 F1400
G1 X122.191 Y106.870 E769.7934 F1400
; layer 149 z=29.80 r_out=12.29 twist=710.4
G0 X122.121 Y107.950 Z29.800 F4000
G1 X115.761 Y112.143 E770.0467 F1400
G1 X117.836 Y119.472 E770.3001 F1400
G1 X111.025 Y116.061 E770.5534 F1400
G1 X105.715 Y121.522 E770.8068 F1400
G1 X105.264 Y113.918 E771.0602 F1400
G1 X97.879 Y112.050 E771.3135 F1400
G1 X104.239 Y107.857 E771.5669 F1400
G1 X102.164 Y100.528 E771.8202 F1400
G1 X108.975 Y103.939 E772.0736 F1400
G1 X114.285 Y98.478 E772.3270 F1400
G1 X114.736 Y106.082 E772.5803 F1400
G1 X122.121 Y107.950 E772.8337 F1400
; layer 150 z=30.00 r_out=12.00 twist=715.2
G0 X121.958 Y108.996 Z30.000 F4000
G1 X115.429 Y112.555 E773.0810 F1400
G1 X116.849 Y119.854 E773.3283 F1400
G1 X110.502 Y115.979 E773.5756 F1400
G1 X104.891 Y120.858 E773.8230 F1400
G1 X105.073 Y113.424 E774.0703 F1400
G1 X98.042 Y111.004 E774.3176 F1400
G1 X104.571 Y107.445 E774.5649 F1400
G1 X103.151 Y100.146 E774.8122 F1400
G1 X109.498 Y104.021 E775.0596 F1400
G1 X115.109 Y99.142 E775.3069 F1400
G1 X114.927 Y106.576 E775.5542 F1400
G1 X121.958 Y108.996 E775.8015 F1400
M104 S0
M140 S0
G28 X Y
